( Made using CamBam - http://www.cambam.co.uk )
( front 2/24/2018 5:03:17 PM )
( T0 : 3.0 )
( T1 : 3.0 )
G21 G90 G64 G40
G0 Z10.0
( T0 : 3.0 )
T0 M6
( Foratura )
G17
M3 S10000
G0 X50.6564 Y46.2316
G0 Z10.0
G0 X50.7564 Y46.2316
G1 F150.0 Z0.0
G2 F300.0 X50.6064 Y46.1449 Z-2.3333 I-0.1 J0.0
G2 Y46.3182 Z-4.6667 I0.05 J0.0866
G2 X50.7564 Y46.2316 Z-7.0 I0.05 J-0.0866
G2 X50.6064 Y46.1449 I-0.1 J0.0
G2 Y46.3182 I0.05 J0.0866
G2 X50.7564 Y46.2316 I0.05 J-0.0866
G0 Z10.0
G0 X284.3564
G1 F150.0 Z0.0
G2 F300.0 X284.2064 Y46.1449 Z-2.3333 I-0.1 J0.0
G2 Y46.3182 Z-4.6667 I0.05 J0.0866
G2 X284.3564 Y46.2316 Z-7.0 I0.05 J-0.0866
G2 X284.2064 Y46.1449 I-0.1 J0.0
G2 Y46.3182 I0.05 J0.0866
G2 X284.3564 Y46.2316 I0.05 J-0.0866
G0 Z10.0
G0 Y380.2316
G1 F150.0 Z0.0
G2 F300.0 X284.2064 Y380.145 Z-2.3333 I-0.1 J0.0
G2 Y380.3182 Z-4.6667 I0.05 J0.0866
G2 X284.3564 Y380.2316 Z-7.0 I0.05 J-0.0866
G2 X284.2064 Y380.145 I-0.1 J0.0
G2 Y380.3182 I0.05 J0.0866
G2 X284.3564 Y380.2316 I0.05 J-0.0866
G0 Z10.0
G0 X167.5564
G1 F150.0 Z0.0
G2 F300.0 X167.4064 Y380.145 Z-2.3333 I-0.1 J0.0
G2 Y380.3182 Z-4.6667 I0.05 J0.0866
G2 X167.5564 Y380.2316 Z-7.0 I0.05 J-0.0866
G2 X167.4064 Y380.145 I-0.1 J0.0
G2 Y380.3182 I0.05 J0.0866
G2 X167.5564 Y380.2316 I0.05 J-0.0866
G0 Z10.0
G0 X50.7564
G1 F150.0 Z0.0
G2 F300.0 X50.6064 Y380.145 Z-2.3333 I-0.1 J0.0
G2 Y380.3182 Z-4.6667 I0.05 J0.0866
G2 X50.7564 Y380.2316 Z-7.0 I0.05 J-0.0866
G2 X50.6064 Y380.145 I-0.1 J0.0
G2 Y380.3182 I0.05 J0.0866
G2 X50.7564 Y380.2316 I0.05 J-0.0866
( Tasca 1mm )
G0 Z10.0
( T1 : 3.0 )
T1 M6
M3 S10000
G0 X264.2564 Y47.3816
G1 F150.0 Z-1.0
G1 F300.0 X254.2564
G2 Y48.1816 I0.0 J0.4
G1 X264.2564
G2 Y47.3816 I0.0 J-0.4
G1 F150.0 Y46.1816
G1 F300.0 X254.2564
G2 Y49.3816 I0.0 J1.6
G1 X264.2564
G2 Y46.1816 I0.0 J-1.6
G0 Z10.0
G0 X190.5423 Y381.3909
G1 F150.0 Z-1.0
G2 F300.0 X190.4564 Y381.3816 I-0.0859 J0.3907
G1 X180.4564 Y381.3815
G2 Y382.1816 I0.0 J0.4
G1 X190.4564
G2 X190.5423 Y381.3909 I0.0 J-0.4
G1 F150.0 X190.8 Y380.2189
G2 F300.0 X190.4564 Y380.1816 I-0.3436 J1.5627
G1 X180.4564 Y380.1815
G2 Y383.3816 I0.0 J1.6
G1 X190.4564
G2 X190.8 Y380.2189 I0.0 J-1.6
G0 Z10.0
G0 X154.856 Y381.7644
G1 F150.0 Z-1.0
G2 F300.0 X154.4564 Y381.3816 I-0.3996 J0.0172
G1 X144.4564 Y381.3815
G2 Y382.1816 I0.0 J0.4
G1 X154.4564
G2 X154.856 Y381.7644 I0.0 J-0.4
G1 F150.0 X156.0549 Y381.7128
G2 F300.0 X154.4564 Y380.1816 I-1.5985 J0.0687
G1 X144.4564 Y380.1815
G2 Y383.3816 I0.0 J1.6
G1 X154.4564
G2 X156.0549 Y381.7128 I0.0 J-1.6
( Tasca 2mm )
S10000
G0 Z10.0
G0 X252.9564 Y34.4816
G1 F150.0 Z-2.0
G1 F300.0 Y34.0816
G1 X204.2064
G1 Y34.4816
G1 X252.9564
G1 F150.0 Y35.6816
G1 F300.0 X254.1564
G1 Y32.8816
G1 X203.0064
G1 Y35.6816
G1 X252.9564
G1 F150.0 Y36.8816
G1 F300.0 X255.3564
G1 Y31.6816
G1 X201.8064
G1 Y36.8816
G1 X252.9564
G1 F150.0 Y38.0816
G1 F300.0 X256.5564
G1 Y30.4816
G1 X200.6064
G1 Y38.0816
G1 X252.9564
G1 F150.0 Y39.2816
G1 F300.0 X257.7564
G1 Y29.2816
G1 X199.4064
G1 Y39.2816
G1 X252.9564
( Tasca 4.5mm )
S10000
G0 Z10.0
G0 X26.2064 Y347.7816
G1 F150.0 Z-4.5
G2 F300.0 X25.4564 Y347.3485 I-0.5 J0.0
G2 Y348.2146 I0.25 J0.433
G2 X26.2064 Y347.7816 I0.25 J-0.433
G1 F150.0 X27.4064
G2 F300.0 X24.8564 Y346.3093 I-1.7 J0.0
G2 Y349.2538 I0.85 J1.4722
G2 X27.4064 Y347.7816 I0.85 J-1.4722
G1 F150.0 X28.6064
G2 F300.0 X24.2564 Y345.2701 I-2.9 J0.0
G2 Y350.293 I1.45 J2.5115
G2 X28.6064 Y347.7816 I1.45 J-2.5115
G1 F150.0 X29.8064
G2 F300.0 X23.6564 Y344.2309 I-4.1 J0.0
G2 Y351.3323 I2.05 J3.5507
G2 X29.8064 Y347.7816 I2.05 J-3.5507
G1 F150.0 X31.0064
G2 F300.0 X23.0564 Y343.1916 I-5.3 J0.0
G2 Y352.3715 I2.65 J4.5899
G2 X31.0064 Y347.7816 I2.65 J-4.5899
G1 F150.0 X32.2064
G2 F300.0 X22.4564 Y342.1524 I-6.5 J0.0
G2 Y353.4107 I3.25 J5.6292
G2 X32.2064 Y347.7816 I3.25 J-5.6292
G0 Z10.0
G0 X14.3564 Y336.4816
G1 F150.0 Z-4.5
G3 F300.0 X13.538 Y335.2316 I0.679 J-1.3375
G1 X12.1564
G3 X10.6774 Y336.4816 I-1.479 J-0.25
G1 X5.8564
G1 X10.6774
G3 X12.1564 Y337.7316 I0.0 J1.5
G1 X13.538
G3 X14.3564 Y336.4816 I1.4974 J0.0875
G0 Z10.0
G0 X70.3946 Y381.5309
G1 F150.0 Z-4.5
G2 F300.0 X70.7064 Y382.1816 I0.3118 J0.2506
G1 X80.7064
G2 Y381.3816 I0.0 J-0.4
G1 X70.7064 Y381.3815
G2 X70.3946 Y381.5309 I0.0 J0.4
G1 F150.0 X69.4594 Y380.779
G2 F300.0 X70.7064 Y383.3816 I1.247 J1.0025
G1 X80.7064
G2 Y380.1816 I0.0 J-1.6
G1 X70.7064 Y380.1815
G2 X69.4594 Y380.779 I0.0 J1.6
G0 Z10.0
G0 X147.1397 Y382.1816
G1 F150.0 Z-4.5
G1 F300.0 X151.7731
G3 X151.7564 Y381.8816 I2.6833 J-0.3
G1 Y379.8815
G1 X147.1564
G1 Y381.8816
G3 X147.1397 Y382.1816 I-2.7 J0.0
G1 F150.0 X145.9471 Y382.0483
G3 F300.0 X144.4564 Y383.3816 I-1.4907 J-0.1667
G1 X154.4564
G3 X152.9564 Y381.8816 I0.0 J-1.5
G1 Y378.6815
G1 X145.9564
G1 Y381.8816
G3 X145.9471 Y382.0483 I-1.5 J0.0
G0 Z10.0
G0 X183.1397 Y382.1816
G1 F150.0 Z-4.5
G1 F300.0 X187.7731
G3 X187.7564 Y381.8816 I2.6833 J-0.3
G1 Y379.8815
G1 X183.1564
G1 Y381.8816
G3 X183.1397 Y382.1816 I-2.7 J0.0
G1 F150.0 Y383.3816
G1 F300.0 X190.4564
G3 X188.9564 Y381.8816 I0.0 J-1.5
G1 Y378.6815
G1 X181.9564
G1 Y381.8816
G3 X180.4564 Y383.3816 I-1.5 J0.0
G1 X183.1397
G0 Z10.0
G0 X253.8065 Y381.7906
G1 F150.0 Z-4.5
G2 F300.0 X254.2064 Y382.1816 I0.3999 J-0.009
G1 X264.2064
G2 Y381.3815 I0.0 J-0.4
G1 X254.2064 Y381.3816
G2 X253.8065 Y381.7906 I0.0 J0.4
G1 F150.0 X252.6068 Y381.8176
G2 F300.0 X254.2064 Y383.3816 I1.5996 J-0.036
G1 X264.2064
G2 Y380.1815 I0.0 J-1.6
G1 X254.2064 Y380.1816
G2 X252.6068 Y381.8176 I0.0 J1.6
G0 Z10.0
G0 X308.7779 Y348.0392
G1 F150.0 Z-4.5
G2 F300.0 X308.9564 Y348.2146 I0.4285 J-0.2577
G2 X309.7064 Y347.7816 I0.25 J-0.433
G2 X308.9564 Y347.3485 I-0.5 J0.0
G2 X308.7779 Y348.0392 I0.25 J0.433
G1 F150.0 X307.7495 Y348.6576
G2 F300.0 X308.3564 Y349.2538 I1.4569 J-0.8761
G2 X310.9064 Y347.7816 I0.85 J-1.4722
G2 X308.3564 Y346.3093 I-1.7 J0.0
G2 X307.7495 Y348.6576 I0.85 J1.4722
G1 F150.0 X306.7211 Y349.2761
G2 F300.0 X307.7564 Y350.293 I2.4853 J-1.4945
G2 X312.1064 Y347.7816 I1.45 J-2.5115
G2 X307.7564 Y345.2701 I-2.9 J0.0
G2 X306.7211 Y349.2761 I1.45 J2.5115
G1 F150.0 X305.6928 Y349.8945
G2 F300.0 X307.1564 Y351.3323 I3.5136 J-2.1129
G2 X313.3064 Y347.7816 I2.05 J-3.5507
G2 X307.1564 Y344.2309 I-4.1 J0.0
G2 X305.6928 Y349.8945 I2.05 J3.5507
G1 F150.0 X304.6644 Y350.5129
G2 F300.0 X306.5564 Y352.3715 I4.542 J-2.7313
G2 X314.5064 Y347.7816 I2.65 J-4.5899
G2 X306.5564 Y343.1916 I-5.3 J0.0
G2 X304.6644 Y350.5129 I2.65 J4.5899
G1 F150.0 X303.636 Y351.1313
G2 F300.0 X305.9564 Y353.4107 I5.5704 J-3.3497
G2 X315.7064 Y347.7816 I3.25 J-5.6292
G2 X305.9564 Y342.1524 I-6.5 J0.0
G2 X303.636 Y351.1313 I3.25 J5.6292
G0 Z10.0
G0 X329.0564 Y336.4816
G1 F150.0 Z-4.5
G1 F300.0 X324.2354
G2 X324.2347 I0.0 J1.5
G2 X322.7564 Y337.7316 I0.0007 J1.5
G1 X321.3748
G2 X320.5564 Y336.4816 I-1.4974 J0.0875
G2 X321.3748 Y335.2316 I-0.679 J-1.3375
G1 X322.7564
G2 X324.2347 Y336.4816 I1.479 J-0.25
G0 Z10.0
G0 X329.0564 Y202.3816
G1 F150.0 Z-4.5
G1 F300.0 X324.2354
G2 X324.2347 I0.0 J1.5
G2 X322.7564 Y203.6316 I0.0007 J1.5
G1 X321.3748
G2 X320.5564 Y202.3816 I-1.4974 J0.0875
G2 X321.3748 Y201.1316 I-0.679 J-1.3375
G1 X322.7564
G2 X324.2347 Y202.3816 I1.479 J-0.25
G0 Z10.0
G0 X329.0564 Y70.4816
G1 F150.0 Z-4.5
G1 F300.0 X324.2354
G2 X324.2347 I0.0 J1.5
G2 X322.7564 Y71.7316 I0.0007 J1.5
G1 X321.3748
G2 X320.5564 Y70.4816 I-1.4974 J0.0875
G2 X321.3748 Y69.2316 I-0.679 J-1.3375
G1 X322.7564
G2 X324.2347 Y70.4816 I1.479 J-0.25
G0 Z10.0
G0 X314.4174 Y48.1477
G1 F150.0 Z-4.5
G2 F300.0 X314.2564 Y47.3815 I-0.161 J-0.3662
G1 X304.2564 Y47.3816
G2 Y48.1816 I0.0 J0.4
G1 X314.2564
G2 X314.4174 Y48.1477 I0.0 J-0.4
G1 F150.0 X314.9003 Y49.2463
G2 F300.0 X314.2564 Y46.1815 I-0.6439 J-1.4647
G1 X304.2564 Y46.1816
G2 Y49.3816 I0.0 J1.6
G1 X314.2564
G2 X314.9003 Y49.2463 I0.0 J-1.6
G0 Z10.0
G0 X261.5731 Y48.1816
G1 F150.0 Z-4.5
G3 F300.0 X261.5564 Y47.8816 I2.6833 J-0.3
G1 Y45.8815
G1 X256.9564
G1 Y47.8816
G3 X256.9397 Y48.1816 I-2.7 J0.0
G1 X261.5731
G1 F150.0 Y49.3816
G1 F300.0 X264.2564
G3 X262.7564 Y47.8816 I0.0 J-1.5
G1 Y44.6815
G1 X255.7564
G1 Y47.8816
G3 X254.2564 Y49.3816 I-1.5 J0.0
G1 X261.5731
G0 Z10.0
G0 X178.4064 Y37.7816
G1 F150.0 Z-4.5
G1 F300.0 Y35.8816
G1 X156.5064
G1 Y37.7816
G1 X178.4064
G1 F150.0 Y38.9816
G1 F300.0 X179.6064
G1 Y34.6816
G1 X155.3064
G1 Y38.9816
G1 X178.4064
G1 F150.0 Y40.1816
G1 F300.0 X180.8064
G1 Y33.4816
G1 X154.1064
G1 Y40.1816
G1 X178.4064
G1 F150.0 Y41.3816
G1 F300.0 X182.0064
G1 Y40.7816
G1 Y32.2816
G1 X152.9064
G1 Y41.3816
G1 X178.4064
G1 F150.0 Y42.5816
G1 F300.0 X183.2064
G1 Y40.7816
G1 Y31.0816
G1 X151.7064
G1 Y42.5816
G1 X178.4064
G1 F150.0 Y43.7816
G1 F300.0 X184.4064
G1 Y40.7816
G1 Y29.8816
G1 X150.5064
G1 Y43.7816
G1 X178.4064
G1 F150.0 Y44.9816
G1 F300.0 X185.6064
G1 Y40.7816
G1 Y28.6816
G1 X149.3064
G1 Y44.9816
G1 X178.4064
G1 F150.0 Y46.1816
G1 F300.0 X186.8064
G1 Y40.7816
G1 Y27.7816
G1 Y27.4816
G1 X148.1064
G1 Y46.1816
G1 X178.4064
G1 F150.0 Y47.3816
G1 F300.0 X188.0064
G1 Y40.7816
G1 Y27.7816
G1 Y26.9319
G3 X187.4032 Y26.2816 I6.95 J-7.0504
G1 X147.5095
G3 X146.9064 Y26.9319 I-7.5531 J-6.4
G1 Y47.3816
G1 X178.4064
G1 F150.0 Y48.5816
G1 F300.0 X189.2064
G1 Y40.7816
G1 Y27.7816
G1 Y26.4105
G3 X187.9814 Y25.0816 I5.75 J-6.529
G1 X146.9313
G3 X145.7064 Y26.4105 I-6.975 J-5.2
G1 Y48.5816
G1 X178.4064
G1 F150.0 Y49.7816
G1 F300.0 X190.4064
G1 Y40.7816
G1 Y27.7816
G1 Y25.8437
G3 X188.6121 Y23.8816 I4.55 J-5.9622
G1 X146.3007
G3 X144.5064 Y25.8437 I-6.3443 J-4.0
G1 Y49.7816
G1 X178.4064
G1 F150.0 Y50.9816
G1 F300.0 X191.6064
G1 Y40.7816
G1 Y27.7816
G1 Y25.2171
G3 X189.3128 Y22.6816 I3.35 J-5.3355
G1 X145.6
G3 X143.3064 Y25.2171 I-5.6436 J-2.8
G1 Y50.9816
G1 X178.4064
G1 F150.0 Y52.1816
G1 F300.0 X192.8064
G1 Y40.7816
G1 Y27.7816
G1 Y24.5062
G3 X190.1139 Y21.4816 I2.15 J-4.6247
G1 X144.7989
G3 X142.1064 Y24.5062 I-4.8425 J-1.6
G1 Y52.1816
G1 X178.4064
G1 F150.0 Y53.3816
G1 F300.0 X194.0064
G1 Y40.7816
G1 Y27.7816
G1 Y23.6641
G3 X191.077 Y20.2816 I0.95 J-3.7825
G1 X143.8358
G3 X140.9064 Y23.6641 I-3.8794 J-0.4
G1 Y53.3816
G1 X178.4064
G1 F150.0 Y54.5816
G1 F300.0 X195.2231
G3 X195.2064 Y54.2816 I2.6833 J-0.3
G1 Y40.7816
G1 Y27.7816
G1 Y22.8816
G3 X195.2231 Y22.5816 I2.7 J0.0
G1 X194.9564
G3 X192.2564 Y19.8816 I0.0 J-2.7
G1 Y19.0816
G1 X142.6564
G1 Y19.8816
G3 X139.9564 Y22.5816 I-2.7 J0.0
G1 X139.6897
G3 X139.7064 Y22.8816 I-2.6833 J0.3
G1 Y54.2816
G3 X139.6897 Y54.5816 I-2.7 J0.0
G1 X178.4064
G1 F150.0 Y55.7816
G1 F300.0 X197.9064
G3 X196.4064 Y54.2816 I0.0 J-1.5
G1 Y40.7816
G1 Y27.7816
G1 Y22.8816
G3 X197.9064 Y21.3816 I1.5 J0.0
G1 X194.9564
G3 X193.4564 Y19.8816 I0.0 J-1.5
G1 Y17.8816
G1 X141.4564
G1 Y19.8816
G3 X139.9564 Y21.3816 I-1.5 J0.0
G1 X137.0064
G3 X138.5064 Y22.8816 I0.0 J1.5
G1 Y54.2816
G3 X137.0064 Y55.7816 I-1.5 J0.0
G1 X178.4064
G0 Z10.0
G0 X31.0558 Y47.8032
G1 F150.0 Z-4.5
G2 F300.0 X30.6564 Y47.3816 I-0.3994 J-0.0216
G1 X20.6564 Y47.3815
G2 Y48.1816 I0.0 J0.4
G1 X30.6564
G2 X31.0558 Y47.8032 I0.0 J-0.4
G1 F150.0 X32.2541 Y47.8681
G2 F300.0 X30.6564 Y46.1816 I-1.5977 J-0.0865
G1 X20.6564 Y46.1815
G2 Y49.3816 I0.0 J1.6
G1 X30.6564
G2 X32.2541 Y47.8681 I0.0 J-1.6
G0 Z10.0
G0 X13.538 Y69.2316
G1 F150.0 Z-4.5
G2 F300.0 X14.3564 Y70.4816 I1.4974 J-0.0875
G2 X13.538 Y71.7316 I0.679 J1.3375
G1 X12.1564
G2 X10.6774 Y70.4816 I-1.479 J0.25
G1 X5.8564
G1 X10.6774
G2 X12.1564 Y69.2316 I0.0 J-1.5
G1 X13.538
G0 Z10.0
G0 Y201.1316
G1 F150.0 Z-4.5
G1 F300.0 X12.1564
G3 X10.6774 Y202.3816 I-1.479 J-0.25
G1 X5.8564
G1 X10.6774
G3 X12.1564 Y203.6316 I0.0 J1.5
G1 X13.538
G3 X14.3564 Y202.3816 I1.4974 J0.0875
G3 X13.538 Y201.1316 I0.679 J-1.3375
( Profili interni )
S10000
G0 Z10.0
G0 X38.9564 Y86.4993
G1 F150.0 Z-7.0
G1 F300.0 Y346.7816
G2 X43.9564 Y351.7816 I5.0 J0.0
G1 X290.9564
G2 X295.9564 Y346.7816 I0.0 J-5.0
G1 Y86.4993
G2 X293.8786 Y84.0352 I-2.5 J0.0
G2 X41.0341 I-126.4223 J737.7461
G2 X38.9564 Y86.4993 I0.4223 J2.464
G0 Z10.0
G0 X94.1038 Y50.0918
G1 F150.0 Z-7.0
G2 F300.0 X99.4564 Y55.133 I13.3526 J-8.8152
G2 X123.4564 Y41.2766 I8.0 J-13.8564
G2 X99.4564 Y27.4201 I-16.0 J0.0
G2 X94.1038 Y50.0918 I8.0 J13.8564
G0 Z10.0
G0 X141.4564
G1 F150.0 Z-7.0
G1 F300.0 Y53.4266
G1 X193.4564
G1 Y29.1266
G1 X141.4564
G1 Y50.0918
G0 Z10.0
G0 X211.4705 Y36.3262
G1 F150.0 Z-7.0
G2 F300.0 X212.2064 Y36.9315 I0.7359 J-0.1447
G1 X235.2064
G2 Y35.4315 I0.0 J-0.75
G1 X212.2064
G2 X211.4705 Y36.3262 I0.0 J0.75
( Profilo esterno )
S10000
G0 Z10.0
G0 X332.0564 Y38.9933
G1 F150.0 Z-7.0
G1 F300.0 Y1.2816
G1 Y0.7816
G2 X330.5564 Y-0.7184 I-1.5 J0.0
G1 X307.52
G2 X299.8596 Y2.8537 I0.0 J10.0
G1 X295.8028 Y7.6883
G3 X290.4406 Y10.1888 I-5.3623 J-4.4995
G1 X44.4722
G3 X39.1099 Y7.6883 I0.0 J-7.0
G1 X35.0532 Y2.8537
G2 X27.3928 Y-0.7184 I-7.6604 J6.4279
G1 X4.3564
G2 X2.8564 Y0.7816 I0.0 J1.5
G1 Y1.2816
G1 Y38.9933
G1 X0.304 Y39.0825
G2 X-1.1436 Y40.5816 I0.0524 J1.4991
G1 Y50.5816
G2 X0.304 Y52.0806 I1.5 J0.0
G1 X2.8564 Y52.1698
G1 Y68.9816
G1 Y71.9816
G1 Y88.9933
G1 X0.304 Y89.0825
G2 X-1.1436 Y90.5816 I0.0523 J1.4991
G1 Y100.5816
G2 X0.304 Y102.0806 I1.5 J0.0
G1 X2.8564 Y102.1698
G1 Y170.6933
G1 X0.304 Y170.7825
G2 X-1.1436 Y172.2816 I0.0524 J1.4991
G1 Y182.2816
G2 X0.304 Y183.7806 I1.5 J0.0
G1 X2.8564 Y183.8698
G0 Z10.0
G0 X336.0564 Y40.5816
G1 F150.0 Z-7.0
G1 F300.0 Y50.5816
G3 X334.6087 Y52.0806 I-1.5 J0.0
G1 X332.0564 Y52.1698
G1 Y68.9816
G1 Y71.9816
G1 Y88.9933
G1 X334.6087 Y89.0825
G3 X336.0564 Y90.5816 I-0.0523 J1.4991
G1 Y100.5816
G3 X334.6087 Y102.0806 I-1.5 J0.0
G1 X332.0564 Y102.1698
G1 Y170.6933
G1 X334.6088 Y170.7825
G3 X336.0564 Y172.2816 I-0.0524 J1.4991
G1 Y182.2816
G3 X334.6088 Y183.7806 I-1.5 J0.0
G1 X332.0564 Y183.8698
G1 Y200.8816
G1 Y203.8816
G1 Y220.6933
G1 X334.6088 Y220.7825
G3 X336.0564 Y222.2816 I-0.0524 J1.4991
G1 Y232.2816
G3 X334.6088 Y233.7806 I-1.5 J0.0
G1 X332.0564 Y233.8698
G1 Y304.8933
G1 X334.6088 Y304.9825
G3 X336.0564 Y306.4816 I-0.0524 J1.4991
G1 Y316.4816
G3 X334.6087 Y317.9807 I-1.5 J0.0
G1 X332.0564 Y318.0698
G1 Y334.9816
G1 Y337.9816
G1 Y354.8933
G1 X334.6088 Y354.9825
G3 X336.0564 Y356.4816 I-0.0524 J1.4991
G1 Y366.4816
G3 X334.6087 Y367.9807 I-1.5 J0.0
G1 X332.0564 Y368.0698
G1 Y378.2816
G1 Y378.7816
G3 X330.5564 Y380.2816 I-1.5 J0.0
G1 X307.2996
G2 X302.1358 Y382.5556 I0.0 J7.0
G1 X298.0379 Y387.033
G1 X298.0378
G1 X298.0379
G3 X290.661 Y390.2816 I-7.3768 J-6.7515
G1 X44.2518
G3 X36.8749 Y387.033 I0.0 J-10.0
G1 X32.777 Y382.5555
G2 X27.6132 Y380.2816 I-5.1638 J4.726
G1 X5.3564
G1 X4.3564
G3 X2.8564 Y378.7816 I0.0 J-1.5
G1 Y377.7816
G1 Y368.0698
G1 X0.304 Y367.9807
G3 X-1.1436 Y366.4816 I0.0523 J-1.4991
G1 Y365.9813
G1 Y356.4816
G3 X0.304 Y354.9825 I1.5 J0.0
G1 X2.8564 Y354.8933
G1 Y337.9816
G1 Y334.9816
G1 Y318.0698
G1 X0.304 Y317.9807
G3 X-1.1436 Y316.4816 I0.0523 J-1.4991
G1 Y306.4816
G3 X0.304 Y304.9825 I1.5 J0.0
G1 X2.8564 Y304.8933
G1 Y233.8698
G1 X0.304 Y233.7806
G3 X-1.1436 Y232.2816 I0.0524 J-1.4991
G1 Y222.2816
G3 X0.304 Y220.7825 I1.5 J0.0
G1 X2.8564 Y220.6933
G1 Y203.8816
G1 Y200.8816
G0 Z10.0
M5
M30
