( Made using CamBam - http://www.cambam.co.uk )
( back 3/3/2018 3:33:21 PM )
( T0 : 3.0 )
( T1 : 3.0 )
G21 G90 G64 G40
G0 Z30.0
( T0 : 3.0 )
T0 M6
( Foratura 1 )
G17
M3 S10000
G0 X284.8 Y380.45
G0 Z30.0
G0 X284.9 Y380.45
G1 F300.0 Z0.0
G2 F800.0 X284.75 Y380.3634 Z-2.3333 I-0.1 J0.0
G2 Y380.5366 Z-4.6667 I0.05 J0.0866
G2 X284.9 Y380.45 Z-7.0 I0.05 J-0.0866
G2 X284.75 Y380.3634 I-0.1 J0.0
G2 Y380.5366 I0.05 J0.0866
G2 X284.9 Y380.45 I0.05 J-0.0866
G0 Z30.0
G0 X226.539
G1 F300.0 Z0.0
G2 F800.0 X226.389 Y380.3634 Z-2.3333 I-0.1 J0.0
G2 Y380.5366 Z-4.6667 I0.05 J0.0866
G2 X226.539 Y380.45 Z-7.0 I0.05 J-0.0866
G2 X226.389 Y380.3634 I-0.1 J0.0
G2 Y380.5366 I0.05 J0.0866
G2 X226.539 Y380.45 I0.05 J-0.0866
G0 Z30.0
G0 X109.661
G1 F300.0 Z0.0
G2 F800.0 X109.511 Y380.3634 Z-2.3333 I-0.1 J0.0
G2 Y380.5366 Z-4.6667 I0.05 J0.0866
G2 X109.661 Y380.45 Z-7.0 I0.05 J-0.0866
G2 X109.511 Y380.3634 I-0.1 J0.0
G2 Y380.5366 I0.05 J0.0866
G2 X109.661 Y380.45 I0.05 J-0.0866
G0 Z30.0
G0 X51.3
G1 F300.0 Z0.0
G2 F800.0 X51.15 Y380.3634 Z-2.3333 I-0.1 J0.0
G2 Y380.5366 Z-4.6667 I0.05 J0.0866
G2 X51.3 Y380.45 Z-7.0 I0.05 J-0.0866
G2 X51.15 Y380.3634 I-0.1 J0.0
G2 Y380.5366 I0.05 J0.0866
G2 X51.3 Y380.45 I0.05 J-0.0866
G0 Z30.0
G0 X34.0087 Y262.4835
G1 F300.0 Z0.0
G2 F800.0 X33.8456 Y262.3893 Z-2.3333 I-0.1087 J0.0
G2 Y262.5776 Z-4.6667 I0.0544 J0.0942
G2 X34.0087 Y262.4835 Z-7.0 I0.0544 J-0.0942
G2 X33.8456 Y262.3893 I-0.1087 J0.0
G2 Y262.5776 I0.0544 J0.0942
G2 X34.0087 Y262.4835 I0.0544 J-0.0942
G0 Z30.0
G0 X46.6 Y227.0
G1 F300.0 Z0.0
G2 F800.0 X46.45 Y226.9134 Z-2.3333 I-0.1 J0.0
G2 Y227.0866 Z-4.6667 I0.05 J0.0866
G2 X46.6 Y227.0 Z-7.0 I0.05 J-0.0866
G2 X46.45 Y226.9134 I-0.1 J0.0
G2 Y227.0866 I0.05 J0.0866
G2 X46.6 Y227.0 I0.05 J-0.0866
G0 Z30.0
G0 Y196.0
G1 F300.0 Z0.0
G2 F800.0 X46.45 Y195.9134 Z-2.3333 I-0.1 J0.0
G2 Y196.0866 Z-4.6667 I0.05 J0.0866
G2 X46.6 Y196.0 Z-7.0 I0.05 J-0.0866
G2 X46.45 Y195.9134 I-0.1 J0.0
G2 Y196.0866 I0.05 J0.0866
G2 X46.6 Y196.0 I0.05 J-0.0866
G0 Z30.0
G0 X34.0087 Y185.4835
G1 F300.0 Z0.0
G2 F800.0 X33.8456 Y185.3893 Z-2.3333 I-0.1087 J0.0
G2 Y185.5776 Z-4.6667 I0.0544 J0.0942
G2 X34.0087 Y185.4835 Z-7.0 I0.0544 J-0.0942
G2 X33.8456 Y185.3893 I-0.1087 J0.0
G2 Y185.5776 I0.0544 J0.0942
G2 X34.0087 Y185.4835 I0.0544 J-0.0942
G0 Z30.0
G0 X15.6 Y196.0
G1 F300.0 Z0.0
G2 F800.0 X15.45 Y195.9134 Z-2.3333 I-0.1 J0.0
G2 Y196.0866 Z-4.6667 I0.05 J0.0866
G2 X15.6 Y196.0 Z-7.0 I0.05 J-0.0866
G2 X15.45 Y195.9134 I-0.1 J0.0
G2 Y196.0866 I0.05 J0.0866
G2 X15.6 Y196.0 I0.05 J-0.0866
G0 Z30.0
G0 Y227.0
G1 F300.0 Z0.0
G2 F800.0 X15.45 Y226.9134 Z-2.3333 I-0.1 J0.0
G2 Y227.0866 Z-4.6667 I0.05 J0.0866
G2 X15.6 Y227.0 Z-7.0 I0.05 J-0.0866
G2 X15.45 Y226.9134 I-0.1 J0.0
G2 Y227.0866 I0.05 J0.0866
G2 X15.6 Y227.0 I0.05 J-0.0866
G0 Z30.0
G0 X70.1 Y46.45
G1 F300.0 Z0.0
G2 F800.0 X69.95 Y46.3634 Z-2.3333 I-0.1 J0.0
G2 Y46.5366 Z-4.6667 I0.05 J0.0866
G2 X70.1 Y46.45 Z-7.0 I0.05 J-0.0866
G2 X69.95 Y46.3634 I-0.1 J0.0
G2 Y46.5366 I0.05 J0.0866
G2 X70.1 Y46.45 I0.05 J-0.0866
G0 Z30.0
G0 X203.7 Y34.5
G1 F300.0 Z0.0
G2 F800.0 X203.55 Y34.4134 Z-2.3333 I-0.1 J0.0
G2 Y34.5866 Z-4.6667 I0.05 J0.0866
G2 X203.7 Y34.5 Z-7.0 I0.05 J-0.0866
G2 X203.55 Y34.4134 I-0.1 J0.0
G2 Y34.5866 I0.05 J0.0866
G2 X203.7 Y34.5 I0.05 J-0.0866
G0 Z30.0
G0 X213.4
G1 F300.0 Z0.0
G2 F800.0 X213.25 Y34.4134 Z-2.3333 I-0.1 J0.0
G2 Y34.5866 Z-4.6667 I0.05 J0.0866
G2 X213.4 Y34.5 Z-7.0 I0.05 J-0.0866
G2 X213.25 Y34.4134 I-0.1 J0.0
G2 Y34.5866 I0.05 J0.0866
G2 X213.4 Y34.5 I0.05 J-0.0866
G0 Z30.0
G0 X255.1 Y27.75
G1 F300.0 Z0.0
G2 F800.0 X254.95 Y27.6634 Z-2.3333 I-0.1 J0.0
G2 Y27.8366 Z-4.6667 I0.05 J0.0866
G2 X255.1 Y27.75 Z-7.0 I0.05 J-0.0866
G2 X254.95 Y27.6634 I-0.1 J0.0
G2 Y27.8366 I0.05 J0.0866
G2 X255.1 Y27.75 I0.05 J-0.0866
G0 Z30.0
G0 X266.1 Y46.45
G1 F300.0 Z0.0
G2 F800.0 X265.95 Y46.3634 Z-2.3333 I-0.1 J0.0
G2 Y46.5366 Z-4.6667 I0.05 J0.0866
G2 X266.1 Y46.45 Z-7.0 I0.05 J-0.0866
G2 X265.95 Y46.3634 I-0.1 J0.0
G2 Y46.5366 I0.05 J0.0866
G2 X266.1 Y46.45 I0.05 J-0.0866
G0 Z30.0
G0 X295.1 Y27.75
G1 F300.0 Z0.0
G2 F800.0 X294.95 Y27.6634 Z-2.3333 I-0.1 J0.0
G2 Y27.8366 Z-4.6667 I0.05 J0.0866
G2 X295.1 Y27.75 Z-7.0 I0.05 J-0.0866
G2 X294.95 Y27.6634 I-0.1 J0.0
G2 Y27.8366 I0.05 J0.0866
G2 X295.1 Y27.75 I0.05 J-0.0866
G0 Z30.0
G0 X289.3965 Y196.0
G1 F300.0 Z0.0
G2 F800.0 X289.2465 Y195.9134 Z-2.3333 I-0.1 J0.0
G2 Y196.0866 Z-4.6667 I0.05 J0.0866
G2 X289.3965 Y196.0 Z-7.0 I0.05 J-0.0866
G2 X289.2465 Y195.9134 I-0.1 J0.0
G2 Y196.0866 I0.05 J0.0866
G2 X289.3965 Y196.0 I0.05 J-0.0866
G0 Z30.0
G0 Y227.0
G1 F300.0 Z0.0
G2 F800.0 X289.2465 Y226.9134 Z-2.3333 I-0.1 J0.0
G2 Y227.0866 Z-4.6667 I0.05 J0.0866
G2 X289.3965 Y227.0 Z-7.0 I0.05 J-0.0866
G2 X289.2465 Y226.9134 I-0.1 J0.0
G2 Y227.0866 I0.05 J0.0866
G2 X289.3965 Y227.0 I0.05 J-0.0866
G0 Z30.0
G0 X320.3965
G1 F300.0 Z0.0
G2 F800.0 X320.2465 Y226.9134 Z-2.3333 I-0.1 J0.0
G2 Y227.0866 Z-4.6667 I0.05 J0.0866
G2 X320.3965 Y227.0 Z-7.0 I0.05 J-0.0866
G2 X320.2465 Y226.9134 I-0.1 J0.0
G2 Y227.0866 I0.05 J0.0866
G2 X320.3965 Y227.0 I0.05 J-0.0866
G0 Z30.0
G0 Y196.0
G1 F300.0 Z0.0
G2 F800.0 X320.2465 Y195.9134 Z-2.3333 I-0.1 J0.0
G2 Y196.0866 Z-4.6667 I0.05 J0.0866
G2 X320.3965 Y196.0 Z-7.0 I0.05 J-0.0866
G2 X320.2465 Y195.9134 I-0.1 J0.0
G2 Y196.0866 I0.05 J0.0866
G2 X320.3965 Y196.0 I0.05 J-0.0866
( Tasca 1.5 )
G0 Z5.0
( T1 : 3.0 )
T1 M6
M3 S10000
G0 X141.0 Y48.4
G1 F300.0 Z-1.5
G1 F800.0 X151.0
G2 Y47.6 I0.0 J-0.4
G1 X141.0
G2 Y48.4 I0.0 J0.4
G1 F300.0 Y49.6
G1 F800.0 X151.0
G2 Y46.4 I0.0 J-1.6
G1 X141.0
G2 Y49.6 I0.0 J1.6
G0 Z5.0
G0 X184.6003 Y48.0145
G1 F300.0 Z-1.5
G2 F800.0 X185.0 Y48.4 I0.3997 J-0.0145
G1 X195.0
G2 Y47.6 I0.0 J-0.4
G1 X185.0
G2 X184.6003 Y48.0145 I0.0 J0.4
G1 F300.0 X183.4011 Y48.0581
G2 F800.0 X185.0 Y49.6 I1.5989 J-0.0581
G1 X195.0
G2 Y46.4 I0.0 J-1.6
G1 X185.0
G2 X183.4011 Y48.0581 I0.0 J1.6
G0 Z5.0
G0 X187.9945 Y381.6
G1 F300.0 Z-1.5
G2 F800.0 X188.0 Y382.4 I0.0055 J0.4
G1 X198.0
G2 Y381.6 I0.0 J-0.4
G1 X188.0
G2 X187.9945 I0.0 J0.4
G1 F300.0 X187.978 Y380.4002
G2 F800.0 X188.0 Y383.6 I0.022 J1.5998
G1 X198.0
G2 Y380.4 I0.0 J-1.6
G1 X188.0
G2 X187.978 Y380.4002 I0.0 J1.6
G0 Z5.0
G0 X148.3997 Y381.984
G1 F300.0 Z-1.5
G2 F800.0 X148.0 Y381.6 I-0.3997 J0.016
G1 X138.0
G2 Y382.4 I0.0 J0.4
G1 X148.0
G2 X148.3997 Y381.984 I0.0 J-0.4
G1 F300.0 X149.5987 Y381.936
G2 F800.0 X148.0 Y380.4 I-1.5987 J0.064
G1 X138.0
G2 Y383.6 I0.0 J1.6
G1 X148.0
G2 X149.5987 Y381.936 I0.0 J-1.6
( Tasca 4.7 )
S10000
G0 Z5.0
G0 X26.75 Y348.0
G1 F300.0 Z-4.7
G2 F800.0 X26.0 Y347.567 I-0.5 J0.0
G2 Y348.433 I0.25 J0.433
G2 X26.75 Y348.0 I0.25 J-0.433
G1 F300.0 X27.95
G2 F800.0 X25.4 Y346.5278 I-1.7 J0.0
G2 Y349.4722 I0.85 J1.4722
G2 X27.95 Y348.0 I0.85 J-1.4722
G1 F300.0 X29.15
G2 F800.0 X24.8 Y345.4885 I-2.9 J0.0
G2 Y350.5115 I1.45 J2.5115
G2 X29.15 Y348.0 I1.45 J-2.5115
G1 F300.0 X30.35
G2 F800.0 X24.2 Y344.4493 I-4.1 J0.0
G2 Y351.5507 I2.05 J3.5507
G2 X30.35 Y348.0 I2.05 J-3.5507
G1 F300.0 X31.55
G2 F800.0 X23.6 Y343.4101 I-5.3 J0.0
G2 Y352.5899 I2.65 J4.5899
G2 X31.55 Y348.0 I2.65 J-4.5899
G1 F300.0 X32.75
G2 F800.0 X23.0 Y342.3708 I-6.5 J0.0
G2 Y353.6292 I3.25 J5.6292
G2 X32.75 Y348.0 I3.25 J-5.6292
G0 Z5.0
G0 X14.9 Y336.7
G1 F300.0 Z-4.7
G3 F800.0 X14.0816 Y335.45 I0.679 J-1.3375
G1 X12.7
G3 X11.221 Y336.7 I-1.479 J-0.25
G1 X6.4
G1 X11.221
G3 X12.7 Y337.95 I0.0 J1.5
G1 X14.0816
G3 X14.9 Y336.7 I1.4974 J0.0875
G0 Z5.0
G0 X70.9382 Y381.7494
G1 F300.0 Z-4.7
G2 F800.0 X71.25 Y382.4 I0.3118 J0.2506
G1 X81.25
G2 Y381.6 I0.0 J-0.4
G1 X71.25
G2 X70.9382 Y381.7494 I0.0 J0.4
G1 F300.0 X70.003 Y380.9975
G2 F800.0 X71.25 Y383.6 I1.247 J1.0025
G1 X81.25
G2 Y380.4 I0.0 J-1.6
G1 X71.25
G2 X70.003 Y380.9975 I0.0 J1.6
G0 Z5.0
G0 X140.6833 Y382.4
G1 F300.0 Z-4.7
G1 F800.0 X145.3167
G3 X145.3 Y382.1 I2.6833 J-0.3
G1 Y380.1
G1 X140.7
G1 Y382.1
G3 X140.6833 Y382.4 I-2.7 J0.0
G1 F300.0 Y383.6
G1 F800.0 X148.0
G3 X146.5 Y382.1 I0.0 J-1.5
G1 Y378.9
G1 X139.5
G1 Y382.1
G3 X138.0 Y383.6 I-1.5 J0.0
G1 X140.6833
G0 Z5.0
G0 X190.6833 Y382.4
G1 F300.0 Z-4.7
G1 F800.0 X195.3167
G3 X195.3 Y382.1 I2.6833 J-0.3
G1 Y380.1
G1 X190.7
G1 Y382.1
G3 X190.6833 Y382.4 I-2.7 J0.0
G1 F300.0 Y383.6
G1 F800.0 X198.0
G3 X196.5 Y382.1 I0.0 J-1.5
G1 Y378.9
G1 X189.5
G1 Y382.1
G3 X188.0 Y383.6 I-1.5 J0.0
G1 X190.6833
G0 Z5.0
G0 X254.3501 Y382.01
G1 F300.0 Z-4.7
G2 F800.0 X254.75 Y382.4 I0.3999 J-0.01
G1 X264.75
G2 Y381.6 I0.0 J-0.4
G1 X254.75
G2 X254.3501 Y382.01 I0.0 J0.4
G1 F300.0 X253.1505 Y382.0399
G2 F800.0 X254.75 Y383.6 I1.5995 J-0.0399
G1 X264.75
G2 Y380.4 I0.0 J-1.6
G1 X254.75
G2 X253.1505 Y382.0399 I0.0 J1.6
G0 Z5.0
G0 X309.3215 Y348.2577
G1 F300.0 Z-4.7
G2 F800.0 X309.5 Y348.433 I0.4285 J-0.2577
G2 X310.25 Y348.0 I0.25 J-0.433
G2 X309.5 Y347.567 I-0.5 J0.0
G2 X309.3215 Y348.2577 I0.25 J0.433
G1 F300.0 X308.2932 Y348.8762
G2 F800.0 X308.9 Y349.4722 I1.4568 J-0.8762
G2 X311.45 Y348.0 I0.85 J-1.4722
G2 X308.9 Y346.5278 I-1.7 J0.0
G2 X308.2932 Y348.8762 I0.85 J1.4722
G1 F300.0 X307.2648 Y349.4946
G2 F800.0 X308.3 Y350.5115 I2.4852 J-1.4946
G2 X312.65 Y348.0 I1.45 J-2.5115
G2 X308.3 Y345.4885 I-2.9 J0.0
G2 X307.2648 Y349.4946 I1.45 J2.5115
G1 F300.0 X306.2365 Y350.1131
G2 F800.0 X307.7 Y351.5507 I3.5135 J-2.1131
G2 X313.85 Y348.0 I2.05 J-3.5507
G2 X307.7 Y344.4493 I-4.1 J0.0
G2 X306.2365 Y350.1131 I2.05 J3.5507
G1 F300.0 X305.2081 Y350.7316
G2 F800.0 X307.1 Y352.5899 I4.5419 J-2.7316
G2 X315.05 Y348.0 I2.65 J-4.5899
G2 X307.1 Y343.4101 I-5.3 J0.0
G2 X305.2081 Y350.7316 I2.65 J4.5899
G1 F300.0 X304.1798 Y351.35
G2 F800.0 X306.5 Y353.6292 I5.5702 J-3.35
G2 X316.25 Y348.0 I3.25 J-5.6292
G2 X306.5 Y342.3708 I-6.5 J0.0
G2 X304.1798 Y351.35 I3.25 J5.6292
G0 Z5.0
G0 X321.9184 Y337.95
G1 F300.0 Z-4.7
G1 F800.0 X323.3
G3 X324.779 Y336.7 I1.479 J0.25
G1 X329.6
G1 X324.779
G3 X323.3 Y335.45 I0.0 J-1.5
G1 X321.9184
G3 X321.1 Y336.7 I-1.4974 J-0.0875
G3 X321.9184 Y337.95 I-0.679 J1.3375
G0 Z5.0
G0 X305.0545 Y271.3164
G1 F300.0 Z-4.7
G2 F800.0 X305.8846 Y270.25 I-0.2699 J-1.0664
G1 Y265.75
G2 X303.6846 I-1.1 J0.0
G1 Y270.25
G2 X305.0545 Y271.3164 I1.1 J0.0
G1 F300.0 X305.3489 Y272.4797
G2 F800.0 X307.0846 Y270.25 I-0.5643 J-2.2297
G1 Y265.75
G2 X302.4846 I-2.3 J0.0
G1 Y270.25
G2 X305.3489 Y272.4797 I2.3 J0.0
G1 F300.0 X305.6434 Y273.643
G2 F800.0 X308.2846 Y270.25 I-0.8587 J-3.393
G1 Y265.75
G2 X301.2846 I-3.5 J0.0
G1 Y270.25
G2 X305.6434 Y273.643 I3.5 J0.0
G1 F300.0 X305.9378 Y274.8063
G2 F800.0 X309.4846 Y270.25 I-1.1531 J-4.5563
G1 Y265.75
G2 X300.0846 I-4.7 J0.0
G1 Y270.25
G2 X305.9378 Y274.8063 I4.7 J0.0
G1 F300.0 X306.2322 Y275.9697
G2 F800.0 X310.6846 Y270.25 I-1.4476 J-5.7197
G1 Y265.75
G2 X298.8846 I-5.9 J0.0
G1 Y270.25
G2 X306.2322 Y275.9697 I5.9 J0.0
G1 F300.0 X306.5266 Y277.133
G2 F800.0 X311.8846 Y270.25 I-1.742 J-6.883
G1 Y265.75
G2 X297.6846 I-7.1 J0.0
G1 Y270.25
G2 X306.5266 Y277.133 I7.1 J0.0
G1 F300.0 X306.821 Y278.2963
G2 F800.0 X313.0846 Y270.25 I-2.0364 J-8.0463
G1 Y265.75
G2 X296.4846 I-8.3 J0.0
G1 Y270.25
G2 X306.821 Y278.2963 I8.3 J0.0
G1 F300.0 X307.1155 Y279.4596
G2 F800.0 X314.2846 Y270.25 I-2.3308 J-9.2096
G1 Y265.75
G2 X295.2846 I-9.5 J0.0
G1 Y270.25
G2 X307.1155 Y279.4596 I9.5 J0.0
G0 Z5.0
G0 X321.9184 Y203.85
G1 F300.0 Z-4.7
G1 F800.0 X323.3
G3 X324.779 Y202.6 I1.479 J0.25
G1 X329.6
G1 X324.779
G3 X323.3 Y201.35 I0.0 J-1.5
G1 X321.9184
G3 X321.1 Y202.6 I-1.4974 J-0.0875
G3 X321.9184 Y203.85 I-0.679 J1.3375
G0 Z5.0
G0 Y71.95
G1 F300.0 Z-4.7
G1 F800.0 X323.3
G3 X324.779 Y70.7 I1.479 J0.25
G1 X329.6
G1 X324.779
G3 X323.3 Y69.45 I0.0 J-1.5
G1 X321.9184
G3 X321.1 Y70.7 I-1.4974 J-0.0875
G3 X321.9184 Y71.95 I-0.679 J1.3375
G0 Z5.0
G0 X314.914 Y48.3834
G1 F300.0 Z-4.7
G2 F800.0 X314.8 Y47.6 I-0.114 J-0.3834
G1 X304.8
G2 Y48.4 I0.0 J0.4
G1 X314.8
G2 X314.914 Y48.3834 I0.0 J-0.4
G1 F300.0 X315.2558 Y49.5337
G2 F800.0 X314.8 Y46.4 I-0.4558 J-1.5337
G1 X304.8
G2 Y49.6 I0.0 J1.6
G1 X314.8
G2 X315.2558 Y49.5337 I0.0 J-1.6
G0 Z5.0
G0 X253.3999 Y48.0099
G1 F300.0 Z-4.7
G2 F800.0 X253.0 Y47.6 I-0.3999 J-0.0099
G1 X243.0
G2 Y48.4 I0.0 J0.4
G1 X253.0
G2 X253.3999 Y48.0099 I0.0 J-0.4
G1 F300.0 X254.5995 Y48.0394
G2 F800.0 X253.0 Y46.4 I-1.5995 J-0.0394
G1 X243.0
G2 Y49.6 I0.0 J1.6
G1 X253.0
G2 X254.5995 Y48.0394 I0.0 J-1.6
G0 Z5.0
G0 X192.3167 Y48.4
G1 F300.0 Z-4.7
G3 F800.0 X192.3 Y48.1 I2.6833 J-0.3
G1 Y46.1
G1 X187.7
G1 Y48.1
G3 X187.6833 Y48.4 I-2.7 J0.0
G1 X192.3167
G1 F300.0 Y49.6
G1 F800.0 X195.0
G3 X193.5 Y48.1 I0.0 J-1.5
G1 Y44.9
G1 X186.5
G1 Y48.1
G3 X185.0 Y49.6 I-1.5 J0.0
G1 X192.3167
G0 Z5.0
G0 X190.5 Y28.5
G1 F300.0 Z-4.7
G1 F800.0 X120.5
G1 X190.5
G1 F300.0 X191.7
G1 F800.0 Y27.3
G1 X119.3
G1 Y29.7
G1 X191.7
G1 Y28.5
G1 F300.0 X192.9
G1 F800.0 Y26.1
G1 X118.1
G1 Y30.9
G1 X192.9
G1 Y28.5
G1 F300.0 X194.1
G1 F800.0 Y24.9
G1 X116.9
G1 Y32.1
G1 X194.1
G1 Y28.5
G1 F300.0 X195.3
G1 F800.0 Y23.7
G1 X115.7
G1 Y33.3
G1 X195.3
G1 Y28.5
G1 F300.0 X196.5
G1 F800.0 Y22.5
G1 X114.5
G1 Y34.5
G1 X196.5
G1 Y28.5
G0 Z5.0
G0 X148.3 Y46.1
G1 F300.0 Z-4.7
G1 F800.0 X143.7
G1 Y48.1
G3 X143.6833 Y48.4 I-2.7 J0.0
G1 X148.3167
G3 X148.3 Y48.1 I2.6833 J-0.3
G1 Y46.1
G1 F300.0 Y44.9
G1 F800.0 X142.5
G1 Y48.1
G3 X141.0 Y49.6 I-1.5 J0.0
G1 X151.0
G3 X149.5 Y48.1 I0.0 J-1.5
G1 Y44.9
G1 X148.3
G0 Z5.0
G0 X103.2682 Y32.2302
G1 F300.0 Z-4.7
G2 F800.0 X103.3 Y32.0 I-0.8182 J-0.2302
G2 X102.025 Y31.2639 I-0.85 J0.0
G2 Y32.7361 I0.425 J0.7361
G2 X103.2682 Y32.2302 I0.425 J-0.7361
G1 F300.0 X104.4234 Y32.5552
G2 F800.0 X104.5 Y32.0 I-1.9734 J-0.5552
G2 X101.425 Y30.2246 I-2.05 J0.0
G2 Y33.7754 I1.025 J1.7754
G2 X104.4234 Y32.5552 I1.025 J-1.7754
G1 F300.0 X105.5785 Y32.8802
G2 F800.0 X105.7 Y32.0 I-3.1285 J-0.8802
G2 X100.825 Y29.1854 I-3.25 J0.0
G2 Y34.8146 I1.625 J2.8146
G2 X105.5785 Y32.8802 I1.625 J-2.8146
G1 F300.0 X106.7337 Y33.2052
G2 F800.0 X106.9 Y32.0 I-4.2837 J-1.2052
G2 X100.225 Y28.1462 I-4.45 J0.0
G2 Y35.8538 I2.225 J3.8538
G2 X106.7337 Y33.2052 I2.225 J-3.8538
G1 F300.0 X107.8888 Y33.5302
G2 F800.0 X108.1 Y32.0 I-5.4388 J-1.5302
G2 X99.625 Y27.107 I-5.65 J0.0
G2 Y36.893 I2.825 J4.893
G2 X107.8888 Y33.5302 I2.825 J-4.893
G0 Z5.0
G0 X93.2869 Y47.7212
G1 F300.0 Z-4.7
G2 F800.0 X93.0 Y47.6 I-0.2869 J0.2788
G1 X83.0
G2 Y48.4 I0.0 J0.4
G1 X93.0
G2 X93.2869 Y47.7212 I0.0 J-0.4
G1 F300.0 X94.1474 Y46.8849
G2 F800.0 X93.0 Y46.4 I-1.1474 J1.1151
G1 X83.0
G2 Y49.6 I0.0 J1.6
G1 X93.0
G2 X94.1474 Y46.8849 I0.0 J-1.6
G0 Z5.0
G0 X31.5999 Y47.9929
G1 F300.0 Z-4.7
G2 F800.0 X31.2 Y47.6 I-0.3999 J0.0071
G1 X21.2
G2 Y48.4 I0.0 J0.4
G1 X31.2
G2 X31.5999 Y47.9929 I0.0 J-0.4
G1 F300.0 X32.7997 Y47.9717
G2 F800.0 X31.2 Y46.4 I-1.5997 J0.0283
G1 X21.2
G2 Y49.6 I0.0 J1.6
G1 X31.2
G2 X32.7997 Y47.9717 I0.0 J-1.6
G0 Z5.0
G0 X14.0816 Y69.45
G1 F300.0 Z-4.7
G1 F800.0 X12.7
G3 X11.221 Y70.7 I-1.479 J-0.25
G1 X6.4
G1 X11.221
G3 X12.7 Y71.95 I0.0 J1.5
G1 X14.0816
G3 X14.9 Y70.7 I1.4974 J0.0875
G3 X14.0816 Y69.45 I0.679 J-1.3375
G0 Z5.0
G0 Y201.35
G1 F300.0 Z-4.7
G1 F800.0 X12.7
G3 X11.221 Y202.6 I-1.479 J-0.25
G1 X6.4
G1 X11.221
G3 X12.7 Y203.85 I0.0 J1.5
G1 X14.0816
G3 X14.9 Y202.6 I1.4974 J0.0875
G3 X14.0816 Y201.35 I0.679 J-1.3375
( Profilo interno )
S10000
G0 Z5.0
G0 X67.47 Y24.95
G1 F300.0 Z-7.0
G1 F800.0 X49.47
G1 Y29.95
G1 X67.47
G1 Y24.95
G0 Z5.0
G0 X76.15 Y26.25
G1 F300.0 Z-7.0
G1 F800.0 Y34.75
G1 X86.35
G1 Y26.25
G1 X76.15
G0 Z5.0
G0 X45.2252 Y153.868
G1 F300.0 Z-7.0
G2 F800.0 X35.65 Y161.4 I-1.8252 J7.532
G1 Y167.4
G2 X51.15 I7.75 J0.0
G1 Y161.4
G2 X45.2252 Y153.868 I-7.75 J0.0
G0 Z5.0
G0 X33.3005 Y202.1797
G1 F300.0 Z-7.0
G2 F800.0 X26.2 Y203.1862 I-2.3005 J9.3203
G2 Y219.8138 I4.8 J8.3138
G2 X40.6 Y211.5 I4.8 J-8.3138
G2 X33.3005 Y202.1797 I-9.6 J0.0
G0 Z5.0
G0 X144.2373 Y196.2666
G1 F300.0 Z-7.0
G2 F800.0 X144.5422 Y199.0 I23.7627 J-1.2666
G1 X147.5919
G3 X147.9441 Y189.5 I20.4081 J-4.0
G1 X144.8479
G2 X144.2373 Y196.2666 I23.1521 J5.5
G0 Z5.0
G0 X152.291 Y205.7964
G1 F300.0 Z-7.0
G1 F800.0 X152.8984 Y212.7388
G2 X183.1016 I15.1016 J-17.7388
G1 X183.709 Y205.7964
G1 X152.291
G0 Z5.0
G0 X188.4081 Y199.0
G1 F300.0 Z-7.0
G1 F800.0 X191.4578
G2 X191.1521 Y189.5 I-23.4578 J-4.0
G1 X188.0559
G3 X188.4081 Y199.0 I-20.0559 J5.5
G0 Z5.0
G0 X295.2514 Y210.4749
G1 F300.0 Z-7.0
G2 F800.0 X299.9965 Y219.8138 I9.5451 J1.0251
G2 X314.3965 Y211.5 I4.8 J-8.3138
G2 X299.9965 Y203.1862 I-9.6 J0.0
G2 X295.2514 Y210.4749 I4.8 J8.3138
G0 Z5.0
G0 X289.2995 Y250.1511
G1 F300.0 Z-7.0
G2 F800.0 X289.1846 Y250.25 I-0.0148 J0.0989
G1 Y254.75
G2 X289.3846 I0.1 J0.0
G1 Y250.25
G2 X289.2995 Y250.1511 I-0.1 J0.0
G0 Z5.0
G0 X320.1846 Y250.2497
G1 F300.0 Z-7.0
G2 F800.0 Y250.25 I0.1 J0.0003
G1 Y254.75
G2 X320.3846 I0.1 J0.0
G1 Y250.25
G2 X320.1846 Y250.2497 I-0.1 J0.0
G0 Z5.0
G0 X320.2843 Y281.15
G1 F300.0 Z-7.0
G2 F800.0 X320.1846 Y281.25 I0.0003 J0.1
G1 Y285.75
G2 X320.3846 I0.1 J0.0
G1 Y281.25
G2 X320.2843 Y281.15 I-0.1 J0.0
G0 Z5.0
G0 X289.3846 Y281.2497
G1 F300.0 Z-7.0
G2 F800.0 X289.1846 Y281.25 I-0.1 J0.0003
G1 Y285.75
G2 X289.3846 I0.1 J0.0
G1 Y281.25
G2 Y281.2497 I-0.1 J0.0
G0 Z5.0
G0 X308.9475 Y345.3697
G1 F300.0 Z-7.0
G2 F800.0 X308.375 Y345.6184 I0.8025 J2.6303
G2 Y350.3816 I1.375 J2.3816
G2 X312.5 Y348.0 I1.375 J-2.3816
G2 X308.9475 Y345.3697 I-2.75 J0.0
G0 Z5.0
G0 X28.9999 Y347.9744
G1 F300.0 Z-7.0
G2 F800.0 X24.875 Y345.6184 I-2.7499 J0.0256
G2 Y350.3816 I1.375 J2.3816
G2 X29.0 Y348.0 I1.375 J-2.3816
G2 X28.9999 Y347.9744 I-2.75 J0.0
G0 Z5.0
G0 X262.5 Y35.5
G1 F300.0 Z-7.0
G1 F800.0 X286.5
G1 Y20.0
G1 X262.5
G1 Y35.5
( Profilo esterno )
S10000
G0 Z5.0
G0 X5.9 Y-0.5
G1 F300.0 Z-7.0
G1 F800.0 X27.9364
G3 X35.5968 Y3.0721 I0.0 J10.0
G1 X39.6535 Y7.9067
G2 X45.0158 Y10.4072 I5.3623 J-4.4995
G1 X290.9842
G2 X296.3465 Y7.9067 I0.0 J-7.0
G1 X300.4032 Y3.0721
G3 X308.0636 Y-0.5 I7.6604 J6.4279
G1 X330.1
G3 X330.1354 Y-0.4996 I0.0 J1.5
G1 X330.1826 Y-0.4985
G3 X330.2554 Y-0.495 I-0.0354 J1.4996
G1 X330.3052 Y-0.4914
G3 X330.3799 Y-0.4841 I-0.1082 J1.4961
G1 X330.4295 Y-0.478
G3 X330.5037 Y-0.467 I-0.1828 J1.4888
G1 X330.5529 Y-0.4584
G3 X330.6265 Y-0.4437 I-0.257 J1.4778
G1 X330.6752 Y-0.4327
G3 X330.748 Y-0.4144 I-0.3306 J1.4631
G1 X330.7961 Y-0.4009
G3 X330.8678 Y-0.379 I-0.4033 J1.4448
G1 X330.9152 Y-0.3631
G3 X330.9858 Y-0.3376 I-0.475 J1.4228
G1 X331.0323 Y-0.3194
G3 X331.1015 Y-0.2904 I-0.5455 J1.3973
G1 X331.1471 Y-0.2699
G3 X331.2147 Y-0.2375 I-0.6146 J1.3683
G1 X331.2592 Y-0.2148
G3 X331.3251 Y-0.179 I-0.6823 J1.3359
G1 X331.3685 Y-0.1541
G3 X331.4325 Y-0.1151 I-0.7482 J1.3001
G1 X331.4745 Y-0.088
G3 X331.5366 Y-0.0458 I-0.8122 J1.2611
G1 X331.5772 Y-0.0167
G3 X331.637 Y0.0285 I-0.8742 J1.2189
G1 X331.6761 Y0.0597
G3 X331.7336 Y0.1078 I-0.9341 J1.1737
G1 X331.7711 Y0.1409
G3 X331.8262 Y0.1918 I-0.9916 J1.1255
G1 X331.862 Y0.2267
G3 X331.9144 Y0.2804 I-1.0466 J1.0746
G1 X331.9484 Y0.317
G3 X331.998 Y0.3732 I-1.099 J1.0209
G1 X332.0302 Y0.4115
G3 X332.077 Y0.4701 I-1.1486 J0.9647
G1 X332.1072 Y0.5099
G3 X332.151 Y0.5708 I-1.1954 J0.9061
G1 X332.1791 Y0.6121
G3 X332.2198 Y0.6751 I-1.2392 J0.8452
G1 X332.2459 Y0.7178
G3 X332.2651 Y0.75 I-1.2799 J0.7822
G3 X332.6 Y2.0 I-2.1651 J1.25
G1 Y39.2118
G1 X335.1523 Y39.3009
G3 X336.6 Y40.8 I-0.0523 J1.4991
G1 Y50.8
G3 X335.1523 Y52.2991 I-1.5 J0.0
G1 X332.6 Y52.3882
G1 Y69.2
G1 Y72.2
G1 Y89.2118
G1 X335.1523 Y89.3009
G3 X336.6 Y90.8 I-0.0523 J1.4991
G1 Y100.8
G3 X335.1523 Y102.2991 I-1.5 J0.0
G1 X332.6 Y102.3882
G1 Y170.9118
G1 X335.1523 Y171.0009
G3 X336.6 Y172.5 I-0.0523 J1.4991
G1 Y182.5
G3 X335.1523 Y183.9991 I-1.5 J0.0
G1 X332.6 Y184.0882
G1 Y201.1
G1 Y204.1
G1 Y220.9118
G1 X335.1523 Y221.0009
G3 X336.6 Y222.5 I-0.0523 J1.4991
G1 Y232.5
G3 X335.1523 Y233.9991 I-1.5 J0.0
G1 X332.6 Y234.0882
G1 Y305.1118
G1 X335.1523 Y305.2009
G3 X336.6 Y306.7 I-0.0523 J1.4991
G1 Y316.7
G3 X335.1523 Y318.1991 I-1.5 J0.0
G1 X332.6 Y318.2882
G1 Y335.2
G1 Y338.2
G1 Y355.1118
G1 X335.1523 Y355.2009
G3 X336.6 Y356.7 I-0.0523 J1.4991
G1 Y366.7
G3 X335.1523 Y368.1991 I-1.5 J0.0
G1 X332.6 Y368.2882
G1 Y378.0
G3 X332.2651 Y379.25 I-2.5 J0.0
G3 X332.247 Y379.2804 I-1.299 J-0.75
G1 X332.2224 Y379.3207
G3 X332.183 Y379.3821 I-1.281 J-0.7804
G1 X332.155 Y379.4234
G3 X332.1113 Y379.4844 I-1.2416 J-0.8418
G1 X332.0813 Y379.5244
G3 X332.0346 Y379.5831 I-1.1979 J-0.9028
G1 X332.0026 Y379.6215
G3 X331.9531 Y379.6778 I-1.1513 J-0.9615
G1 X331.9192 Y379.7145
G3 X331.8669 Y379.7683 I-1.1018 J-1.0178
G1 X331.8312 Y379.8033
G3 X331.7763 Y379.8544 I-1.0496 J-1.0716
G1 X331.7389 Y379.8876
G3 X331.6816 Y379.9359 I-0.9947 J-1.1227
G1 X331.6425 Y379.9671
G3 X331.5828 Y380.0125 I-0.9373 J-1.1711
G1 X331.5423 Y380.0418
G3 X331.4804 Y380.0841 I-0.8776 J-1.2164
G1 X331.4384 Y380.1113
G3 X331.3745 Y380.1505 I-0.8158 J-1.2588
G1 X331.3312 Y380.1756
G3 X331.2654 Y380.2115 I-0.7518 J-1.298
G1 X331.221 Y380.2344
G3 X331.1534 Y380.267 I-0.686 J-1.3339
G1 X331.1079 Y380.2876
G3 X331.0388 Y380.3168 I-0.6185 J-1.3666
G1 X330.9923 Y380.3351
G3 X330.9219 Y380.3608 I-0.5494 J-1.3958
G1 X330.8745 Y380.3768
G3 X330.8028 Y380.399 I-0.479 J-1.4215
G1 X330.7547 Y380.4126
G3 X330.6821 Y380.4311 I-0.4073 J-1.4436
G1 X330.6333 Y380.4423
G3 X330.5598 Y380.4572 I-0.3347 J-1.4622
G1 X330.5106 Y380.4659
G3 X330.4365 Y380.4771 I-0.2612 J-1.4771
G1 X330.3868 Y380.4833
G3 X330.3122 Y380.4908 I-0.187 J-1.4883
G1 X330.2624 Y380.4945
G3 X330.1875 Y380.4983 I-0.1124 J-1.4958
G1 X330.1375 Y380.4995
G3 X330.1 Y380.5 I-0.0375 J-1.4995
G1 X307.8431
G2 X302.6794 Y382.774 I0.0 J7.0
G1 X298.5815 Y387.2515
G3 X291.2046 Y390.5 I-7.3768 J-6.7515
G1 X44.7954
G3 X37.4185 Y387.2515 I0.0 J-10.0
G1 X33.3206 Y382.774
G2 X28.1569 Y380.5 I-5.1638 J4.726
G1 X5.9
G3 X5.8646 Y380.4996 I0.0 J-1.5
G1 X5.8174 Y380.4985
G3 X5.7446 Y380.495 I0.0354 J-1.4996
G1 X5.6948 Y380.4914
G3 X5.6201 Y380.4841 I0.1082 J-1.4961
G1 X5.5705 Y380.478
G3 X5.4963 Y380.467 I0.1828 J-1.4888
G1 X5.4471 Y380.4584
G3 X5.3735 Y380.4437 I0.257 J-1.4778
G1 X5.3248 Y380.4327
G3 X5.252 Y380.4144 I0.3306 J-1.4631
G1 X5.2039 Y380.4009
G3 X5.1322 Y380.379 I0.4033 J-1.4448
G1 X5.0848 Y380.3631
G3 X5.0142 Y380.3376 I0.475 J-1.4228
G1 X4.9677 Y380.3194
G3 X4.8985 Y380.2904 I0.5455 J-1.3973
G1 X4.8529 Y380.2699
G3 X4.7853 Y380.2375 I0.6146 J-1.3683
G1 X4.7408 Y380.2148
G3 X4.6749 Y380.179 I0.6823 J-1.3359
G1 X4.6315 Y380.1541
G3 X4.5675 Y380.1151 I0.7482 J-1.3001
G1 X4.5255 Y380.088
G3 X4.4634 Y380.0458 I0.8122 J-1.2611
G1 X4.4228 Y380.0167
G3 X4.363 Y379.9715 I0.8742 J-1.2189
G1 X4.3239 Y379.9403
G3 X4.2664 Y379.8922 I0.9341 J-1.1737
G1 X4.2289 Y379.8591
G3 X4.1738 Y379.8082 I0.9916 J-1.1255
G1 X4.138 Y379.7733
G3 X4.0856 Y379.7196 I1.0466 J-1.0746
G1 X4.0516 Y379.683
G3 X4.002 Y379.6268 I1.099 J-1.0209
G1 X3.9698 Y379.5885
G3 X3.923 Y379.5299 I1.1486 J-0.9647
G1 X3.8928 Y379.4901
G3 X3.849 Y379.4292 I1.1954 J-0.9061
G1 X3.8209 Y379.3879
G3 X3.7802 Y379.3249 I1.2392 J-0.8452
G1 X3.7541 Y379.2822
G3 X3.7349 Y379.25 I1.2799 J-0.7822
G3 X3.4 Y378.0 I2.1651 J-1.25
G1 Y368.2882
G1 X0.8477 Y368.1991
G3 X-0.6 Y366.7 I0.0523 J-1.4991
G1 Y356.7
G3 X0.8477 Y355.2009 I1.5 J0.0
G1 X3.4 Y355.1118
G1 Y338.2
G1 Y335.2
G1 Y318.2882
G1 X0.8477 Y318.1991
G3 X-0.6 Y316.7 I0.0523 J-1.4991
G1 Y306.7
G3 X0.8477 Y305.2009 I1.5 J0.0
G1 X3.4 Y305.1118
G1 Y234.0882
G1 X0.8477 Y233.9991
G3 X-0.6 Y232.5 I0.0523 J-1.4991
G1 Y222.5
G3 X0.8477 Y221.0009 I1.5 J0.0
G1 X3.4 Y220.9118
G1 Y204.1
G1 Y201.1
G1 Y184.0882
G1 X0.8477 Y183.9991
G3 X-0.6 Y182.5 I0.0523 J-1.4991
G1 Y172.5
G3 X0.8477 Y171.0009 I1.5 J0.0
G1 X3.4 Y170.9118
G1 Y102.3882
G1 X0.8477 Y102.2991
G3 X-0.6 Y100.8 I0.0523 J-1.4991
G1 Y90.8
G3 X0.8477 Y89.3009 I1.5 J0.0
G1 X3.4 Y89.2118
G1 Y72.2
G1 Y69.2
G1 Y52.3882
G1 X0.8477 Y52.2991
G3 X-0.6 Y50.8 I0.0523 J-1.4991
G1 Y40.8
G3 X0.8477 Y39.3009 I1.5 J0.0
G1 X3.4 Y39.2118
G1 Y2.0
G3 X3.7349 Y0.75 I2.5 J0.0
G3 X3.753 Y0.7196 I1.299 J0.75
G1 X3.7776 Y0.6793
G3 X3.817 Y0.6179 I1.281 J0.7804
G1 X3.845 Y0.5766
G3 X3.8887 Y0.5156 I1.2416 J0.8418
G1 X3.9187 Y0.4756
G3 X3.9654 Y0.4169 I1.1979 J0.9028
G1 X3.9974 Y0.3785
G3 X4.0469 Y0.3222 I1.1513 J0.9615
G1 X4.0808 Y0.2855
G3 X4.1331 Y0.2317 I1.1018 J1.0178
G1 X4.1688 Y0.1967
G3 X4.2237 Y0.1456 I1.0496 J1.0716
G1 X4.2611 Y0.1124
G3 X4.3184 Y0.0641 I0.9947 J1.1227
G1 X4.3575 Y0.0329
G3 X4.4172 Y-0.0125 I0.9373 J1.1711
G1 X4.4577 Y-0.0418
G3 X4.5196 Y-0.0841 I0.8776 J1.2164
G1 X4.5616 Y-0.1113
G3 X4.6255 Y-0.1505 I0.8158 J1.2588
G1 X4.6688 Y-0.1756
G3 X4.7346 Y-0.2115 I0.7518 J1.298
G1 X4.779 Y-0.2344
G3 X4.8466 Y-0.267 I0.686 J1.3339
G1 X4.8921 Y-0.2876
G3 X4.9612 Y-0.3168 I0.6185 J1.3666
G1 X5.0077 Y-0.3351
G3 X5.0781 Y-0.3608 I0.5494 J1.3958
G1 X5.1255 Y-0.3768
G3 X5.1972 Y-0.399 I0.479 J1.4215
G1 X5.2453 Y-0.4126
G3 X5.3179 Y-0.4311 I0.4073 J1.4436
G1 X5.3667 Y-0.4423
G3 X5.4402 Y-0.4572 I0.3347 J1.4622
G1 X5.4894 Y-0.4659
G3 X5.5635 Y-0.4771 I0.2612 J1.4771
G1 X5.6132 Y-0.4833
G3 X5.6878 Y-0.4908 I0.187 J1.4883
G1 X5.7376 Y-0.4945
G3 X5.8125 Y-0.4983 I0.1124 J1.4958
G1 X5.8625 Y-0.4995
G3 X5.9 Y-0.5 I0.0375 J1.4995
G0 Z5.0
M5
M30
