( Made using CamBam - http://www.cambam.co.uk )
( bottom 3/10/2018 3:22:21 PM )
( T0 : 3.0 )
( T1 : 3.0 )
G21 G90 G64 G40
G0 Z30.0
( T0 : 3.0 )
T0 M6
( Foratura )
G17
M3 S18000
G0 X93.2 Y302.25
G0 Z30.0
G0 X93.3 Y302.25
G1 F300.0 Z0.0
G2 F800.0 X93.15 Y302.1634 Z-2.3333 I-0.1 J0.0
G2 Y302.3366 Z-4.6667 I0.05 J0.0866
G2 X93.3 Y302.25 Z-7.0 I0.05 J-0.0866
G2 X93.15 Y302.1634 I-0.1 J0.0
G2 Y302.3366 I0.05 J0.0866
G2 X93.3 Y302.25 I0.05 J-0.0866
G0 Z30.0
G0 Y337.25
G1 F300.0 Z0.0
G2 F800.0 X93.15 Y337.1634 Z-2.3333 I-0.1 J0.0
G2 Y337.3366 Z-4.6667 I0.05 J0.0866
G2 X93.3 Y337.25 Z-7.0 I0.05 J-0.0866
G2 X93.15 Y337.1634 I-0.1 J0.0
G2 Y337.3366 I0.05 J0.0866
G2 X93.3 Y337.25 I0.05 J-0.0866
G0 Z30.0
G0 X253.3 Y321.25
G1 F300.0 Z0.0
G2 F800.0 X253.15 Y321.1634 Z-2.3333 I-0.1 J0.0
G2 Y321.3366 Z-4.6667 I0.05 J0.0866
G2 X253.3 Y321.25 Z-7.0 I0.05 J-0.0866
G2 X253.15 Y321.1634 I-0.1 J0.0
G2 Y321.3366 I0.05 J0.0866
G2 X253.3 Y321.25 I0.05 J-0.0866
G0 Z30.0
G0 Y302.25
G1 F300.0 Z0.0
G2 F800.0 X253.15 Y302.1634 Z-2.3333 I-0.1 J0.0
G2 Y302.3366 Z-4.6667 I0.05 J0.0866
G2 X253.3 Y302.25 Z-7.0 I0.05 J-0.0866
G2 X253.15 Y302.1634 I-0.1 J0.0
G2 Y302.3366 I0.05 J0.0866
G2 X253.3 Y302.25 I0.05 J-0.0866
G0 Z30.0
G0 X234.6 Y246.5
G1 F300.0 Z0.0
G2 F800.0 X233.7 Y245.9804 Z-2.3333 I-0.6 J0.0
G2 Y247.0196 Z-4.6667 I0.3 J0.5196
G2 X234.6 Y246.5 Z-7.0 I0.3 J-0.5196
G2 X233.7 Y245.9804 I-0.6 J0.0
G2 Y247.0196 I0.3 J0.5196
G2 X234.6 Y246.5 I0.3 J-0.5196
G0 Z30.0
G0 X216.1 Y210.5
G1 F300.0 Z0.0
G2 F800.0 X215.95 Y210.4134 Z-2.3333 I-0.1 J0.0
G2 Y210.5866 Z-4.6667 I0.05 J0.0866
G2 X216.1 Y210.5 Z-7.0 I0.05 J-0.0866
G2 X215.95 Y210.4134 I-0.1 J0.0
G2 Y210.5866 I0.05 J0.0866
G2 X216.1 Y210.5 I0.05 J-0.0866
G0 Z30.0
G0 X282.6 Y246.5
G1 F300.0 Z0.0
G2 F800.0 X281.7 Y245.9804 Z-2.3333 I-0.6 J0.0
G2 Y247.0196 Z-4.6667 I0.3 J0.5196
G2 X282.6 Y246.5 Z-7.0 I0.3 J-0.5196
G2 X281.7 Y245.9804 I-0.6 J0.0
G2 Y247.0196 I0.3 J0.5196
G2 X282.6 Y246.5 I0.3 J-0.5196
G0 Z30.0
G0 X300.1 Y56.5
G1 F300.0 Z0.0
G2 F800.0 X299.95 Y56.4134 Z-2.3333 I-0.1 J0.0
G2 Y56.5866 Z-4.6667 I0.05 J0.0866
G2 X300.1 Y56.5 Z-7.0 I0.05 J-0.0866
G2 X299.95 Y56.4134 I-0.1 J0.0
G2 Y56.5866 I0.05 J0.0866
G2 X300.1 Y56.5 I0.05 J-0.0866
G0 Z30.0
G0 X266.1 Y25.5
G1 F300.0 Z0.0
G2 F800.0 X265.95 Y25.4134 Z-2.3333 I-0.1 J0.0
G2 Y25.5866 Z-4.6667 I0.05 J0.0866
G2 X266.1 Y25.5 Z-7.0 I0.05 J-0.0866
G2 X265.95 Y25.4134 I-0.1 J0.0
G2 Y25.5866 I0.05 J0.0866
G2 X266.1 Y25.5 I0.05 J-0.0866
G0 Z30.0
G0 X230.05
G1 F300.0 Z0.0
G2 F800.0 X229.975 Y25.4567 Z-2.3333 I-0.05 J0.0
G2 Y25.5433 Z-4.6667 I0.025 J0.0433
G2 X230.05 Y25.5 Z-7.0 I0.025 J-0.0433
G2 X229.975 Y25.4567 I-0.05 J0.0
G2 Y25.5433 I0.025 J0.0433
G2 X230.05 Y25.5 I0.025 J-0.0433
G0 Z30.0
G0 X183.6 Y41.0
G1 F300.0 Z0.0
G2 F800.0 X183.45 Y40.9134 Z-2.3333 I-0.1 J0.0
G2 Y41.0866 Z-4.6667 I0.05 J0.0866
G2 X183.6 Y41.0 Z-7.0 I0.05 J-0.0866
G2 X183.45 Y40.9134 I-0.1 J0.0
G2 Y41.0866 I0.05 J0.0866
G2 X183.6 Y41.0 I0.05 J-0.0866
G0 Z30.0
G0 X152.6
G1 F300.0 Z0.0
G2 F800.0 X152.45 Y40.9134 Z-2.3333 I-0.1 J0.0
G2 Y41.0866 Z-4.6667 I0.05 J0.0866
G2 X152.6 Y41.0 Z-7.0 I0.05 J-0.0866
G2 X152.45 Y40.9134 I-0.1 J0.0
G2 Y41.0866 I0.05 J0.0866
G2 X152.6 Y41.0 I0.05 J-0.0866
G0 Z30.0
G0 Y10.0
G1 F300.0 Z0.0
G2 F800.0 X152.45 Y9.9134 Z-2.3333 I-0.1 J0.0
G2 Y10.0866 Z-4.6667 I0.05 J0.0866
G2 X152.6 Y10.0 Z-7.0 I0.05 J-0.0866
G2 X152.45 Y9.9134 I-0.1 J0.0
G2 Y10.0866 I0.05 J0.0866
G2 X152.6 Y10.0 I0.05 J-0.0866
G0 Z30.0
G0 X183.6
G1 F300.0 Z0.0
G2 F800.0 X183.45 Y9.9134 Z-2.3333 I-0.1 J0.0
G2 Y10.0866 Z-4.6667 I0.05 J0.0866
G2 X183.6 Y10.0 Z-7.0 I0.05 J-0.0866
G2 X183.45 Y9.9134 I-0.1 J0.0
G2 Y10.0866 I0.05 J0.0866
G2 X183.6 Y10.0 I0.05 J-0.0866
G0 Z30.0
G0 X106.05 Y25.5
G1 F300.0 Z0.0
G2 F800.0 X105.975 Y25.4567 Z-2.3333 I-0.05 J0.0
G2 Y25.5433 Z-4.6667 I0.025 J0.0433
G2 X106.05 Y25.5 Z-7.0 I0.025 J-0.0433
G2 X105.975 Y25.4567 I-0.05 J0.0
G2 Y25.5433 I0.025 J0.0433
G2 X106.05 Y25.5 I0.025 J-0.0433
G0 Z30.0
G0 X70.1
G1 F300.0 Z0.0
G2 F800.0 X69.95 Y25.4134 Z-2.3333 I-0.1 J0.0
G2 Y25.5866 Z-4.6667 I0.05 J0.0866
G2 X70.1 Y25.5 Z-7.0 I0.05 J-0.0866
G2 X69.95 Y25.4134 I-0.1 J0.0
G2 Y25.5866 I0.05 J0.0866
G2 X70.1 Y25.5 I0.05 J-0.0866
( Tasche 2mm )
G0 Z5.0
( T1 : 3.0 )
T1 M6
M3 S18000
G1 F300.0 X68.9
G1 Z-2.0
G2 F800.0 X71.1 I1.1 J0.0
G2 X68.9 I-1.1 J0.0
G1 F300.0 X67.7
G2 F800.0 X72.3 I2.3 J0.0
G2 X67.7 I-2.3 J0.0
G1 F300.0 X66.5
G2 F800.0 X73.5 I3.5 J0.0
G2 X66.5 I-3.5 J0.0
G0 Z5.0
G0 X104.9
G1 F300.0 Z-2.0
G2 F800.0 X107.1 I1.1 J0.0
G2 X104.9 I-1.1 J0.0
G1 F300.0 X103.7
G2 F800.0 X108.3 I2.3 J0.0
G2 X103.7 I-2.3 J0.0
G1 F300.0 X102.5
G2 F800.0 X109.5 I3.5 J0.0
G2 X102.5 I-3.5 J0.0
G0 Z5.0
G0 X166.8
G1 F300.0 Z-2.0
G2 F800.0 X169.2 I1.2 J0.0
G2 X166.8 I-1.2 J0.0
G1 F300.0 X165.6
G2 F800.0 X170.4 I2.4 J0.0
G2 X165.6 I-2.4 J0.0
G1 F300.0 X164.4
G2 F800.0 X171.6 I3.6 J0.0
G2 X164.4 I-3.6 J0.0
G1 F300.0 X163.2
G2 F800.0 X172.8 I4.8 J0.0
G2 X163.2 I-4.8 J0.0
G1 F300.0 X162.0
G2 F800.0 X174.0 I6.0 J0.0
G2 X162.0 I-6.0 J0.0
G1 F300.0 X160.8
G2 F800.0 X175.2 I7.2 J0.0
G2 X160.8 I-7.2 J0.0
G1 F300.0 X159.6
G2 F800.0 X176.4 I8.4 J0.0
G2 X159.6 I-8.4 J0.0
G1 F300.0 X158.4
G2 F800.0 X177.6 I9.6 J0.0
G2 X158.4 I-9.6 J0.0
G0 Z5.0
G0 X228.9
G1 F300.0 Z-2.0
G2 F800.0 X231.1 I1.1 J0.0
G2 X228.9 I-1.1 J0.0
G1 F300.0 X227.7
G2 F800.0 X232.3 I2.3 J0.0
G2 X227.7 I-2.3 J0.0
G1 F300.0 X226.5
G2 F800.0 X233.5 I3.5 J0.0
G2 X226.5 I-3.5 J0.0
G0 Z5.0
G0 X264.9
G1 F300.0 Z-2.0
G2 F800.0 X267.1 I1.1 J0.0
G2 X264.9 I-1.1 J0.0
G1 F300.0 X263.7
G2 F800.0 X268.3 I2.3 J0.0
G2 X263.7 I-2.3 J0.0
G1 F300.0 X262.5
G2 F800.0 X269.5 I3.5 J0.0
G2 X262.5 I-3.5 J0.0
( Tasche 4,5mm )
S18000
G0 Z5.0
G0 X267.25 Y13.8816
G1 F300.0 Z-4.5
G1 F800.0 Y12.5
G3 X266.0 Y11.021 I0.25 J-1.479
G1 Y6.2
G1 Y11.021
G3 X264.75 Y12.5 I-1.5 J0.0
G1 Y13.8816
G3 X266.0 Y14.7 I-0.0875 J1.4974
G3 X267.25 Y13.8816 I1.3375 J0.679
G0 Z5.0
G0 X321.1 Y47.5
G1 F300.0 Z-4.5
G3 F800.0 X321.9184 Y48.75 I-0.679 J1.3375
G1 X323.3
G3 X324.779 Y47.5 I1.479 J0.25
G1 X329.6
G1 X324.779
G3 X323.3 Y46.25 I0.0 J-1.5
G1 X321.9184
G3 X321.1 Y47.5 I-1.4974 J-0.0875
G0 Z5.0
G0 X321.9184 Y172.25
G1 F300.0 Z-4.5
G3 F800.0 X321.1 Y173.5 I-1.4974 J-0.0875
G3 X321.9184 Y174.75 I-0.679 J1.3375
G1 X323.3
G3 X324.779 Y173.5 I1.479 J0.25
G1 X329.6
G1 X324.779
G3 X323.3 Y172.25 I0.0 J-1.5
G1 X321.9184
G0 Z5.0
G0 Y298.25
G1 F300.0 Z-4.5
G3 F800.0 X321.1 Y299.5 I-1.4974 J-0.0875
G3 X321.9184 Y300.75 I-0.679 J1.3375
G1 X323.3
G3 X324.779 Y299.5 I1.479 J0.25
G1 X329.6
G1 X324.779
G3 X323.3 Y298.25 I0.0 J-1.5
G1 X321.9184
G0 Z5.0
G0 X286.05 Y333.1184
G1 F300.0 Z-4.5
G3 F800.0 X284.8 Y332.3 I0.0875 J-1.4974
G3 X283.55 Y333.1184 I-1.3375 J-0.679
G1 Y334.5
G3 X284.8 Y335.979 I-0.25 J1.479
G1 Y340.8
G1 Y335.979
G3 X286.05 Y334.5 I1.5 J0.0
G1 Y333.1184
G0 Z5.0
G0 X243.5
G1 F300.0 Z-4.5
G1 F800.0 Y329.7
G1 X242.75
G1 Y340.8
G1 X243.5
G1 Y333.1184
G0 Z5.0
G0 X230.5 Y320.7
G1 F300.0 Z-4.5
G1 F800.0 X225.5
G1 X230.5
G1 F300.0 X231.7
G1 F800.0 Y319.5
G1 X224.3
G1 Y321.9
G1 X231.7
G1 Y320.7
G1 F300.0 X232.9
G1 F800.0 Y318.3
G1 X223.1
G1 Y323.1
G1 X232.9
G1 Y320.7
G1 F300.0 X234.1
G1 F800.0 Y317.1
G1 X221.9
G1 Y324.3
G1 X234.1
G1 Y320.7
G1 F300.0 X235.3
G1 F800.0 Y315.9
G1 X220.7
G1 Y325.5
G1 X235.3
G1 Y320.7
G1 F300.0 X236.5
G1 F800.0 Y314.7
G1 X219.5
G1 Y326.7
G1 X236.5
G1 Y320.7
G0 Z5.0
G0 X213.25 Y329.7
G1 F300.0 Z-4.5
G1 F800.0 X212.5
G1 Y340.8
G1 X213.25
G1 Y329.7
G0 Z5.0
G0 X52.45 Y333.1184
G1 F300.0 Z-4.5
G3 F800.0 X51.2 Y332.3 I0.0875 J-1.4974
G3 X49.95 Y333.1184 I-1.3375 J-0.679
G1 Y334.5
G3 X51.2 Y335.979 I-0.25 J1.479
G1 Y340.8
G1 Y335.979
G3 X52.45 Y334.5 I1.5 J0.0
G1 Y333.1184
G0 Z5.0
G0 X14.0816 Y300.75
G1 F300.0 Z-4.5
G3 F800.0 X14.9 Y299.5 I1.4974 J0.0875
G3 X14.0816 Y298.25 I0.679 J-1.3375
G1 X12.7
G3 X11.221 Y299.5 I-1.479 J-0.25
G1 X6.4
G1 X11.221
G3 X12.7 Y300.75 I0.0 J1.5
G1 X14.0816
G0 Z5.0
G0 Y174.75
G1 F300.0 Z-4.5
G3 F800.0 X14.9 Y173.5 I1.4974 J0.0875
G3 X14.0816 Y172.25 I0.679 J-1.3375
G1 X12.7
G3 X11.221 Y173.5 I-1.479 J-0.25
G1 X6.4
G1 X11.221
G3 X12.7 Y174.75 I0.0 J1.5
G1 X14.0816
G0 Z5.0
G0 Y48.75
G1 F300.0 Z-4.5
G3 F800.0 X14.9 Y47.5 I1.4974 J0.0875
G3 X14.0816 Y46.25 I0.679 J-1.3375
G1 X12.7
G3 X11.221 Y47.5 I-1.479 J-0.25
G1 X6.4
G1 X11.221
G3 X12.7 Y48.75 I0.0 J1.5
G1 X14.0816
G0 Z5.0
G0 X68.75 Y13.8816
G1 F300.0 Z-4.5
G3 F800.0 X70.0 Y14.7 I-0.0875 J1.4974
G3 X71.25 Y13.8816 I1.3375 J0.679
G1 Y12.5
G3 X70.0 Y11.021 I0.25 J-1.479
G1 Y6.2
G1 Y11.021
G3 X68.75 Y12.5 I-1.5 J0.0
G1 Y13.8816
( Profili interni )
S18000
G0 Z5.0
G0 X116.4 Y174.25
G1 F300.0 Z-7.0
G1 F800.0 Y176.75
G2 X116.6 I0.1 J0.0
G1 Y174.25
G2 X116.4 I-0.1 J0.0
G0 Z5.0
G0 X47.6
G1 F300.0 Z-7.0
G2 F800.0 X47.4 I-0.1 J0.0
G1 Y176.75
G2 X47.6 I0.1 J0.0
G1 Y174.25
G0 Z5.0
G0 X86.8205 Y29.8427
G1 F300.0 Z-7.0
G2 F800.0 X92.5 Y25.5 I1.1795 J-4.3427
G2 X83.5 I-4.5 J0.0
G2 X86.8205 Y29.8427 I4.5 J0.0
G0 Z5.0
G0 X116.4146 Y11.8021
G1 F300.0 Z-7.0
G2 F800.0 X116.6 Y11.75 I0.0854 J-0.0521
G1 Y9.25
G2 X116.4 I-0.1 J0.0
G1 Y11.75
G2 X116.4146 Y11.8021 I0.1 J0.0
G0 Z5.0
G0 X162.6842 Y24.0885
G1 F300.0 Z-7.0
G2 F800.0 X162.5 Y25.5 I5.3158 J1.4115
G2 X173.5 I5.5 J0.0
G2 X162.6842 Y24.0885 I-5.5 J0.0
G0 Z5.0
G0 X243.5006 Y25.4256
G1 F300.0 Z-7.0
G2 F800.0 X243.5 Y25.5 I4.4994 J0.0744
G2 X252.5 I4.5 J0.0
G2 X243.5006 Y25.4256 I-4.5 J0.0
G0 Z5.0
G0 X47.5998 Y11.757
G1 F300.0 Z-7.0
G2 F800.0 X47.6 Y11.75 I-0.0998 J-0.007
G1 Y9.25
G2 X47.4 I-0.1 J0.0
G1 Y11.75
G2 X47.5998 Y11.757 I0.1 J0.0
( Profilo esterno )
S18000
G0 Z5.0
G0 X68.5 Y3.2
G1 F300.0 Z-7.0
G1 F800.0 X71.5
G1 X81.4118
G1 X81.5009 Y0.6477
G3 X83.0 Y-0.8 I1.4991 J0.0523
G1 X93.0
G3 X94.4991 Y0.6477 I0.0 J1.5
G1 X94.5882 Y3.2
G1 X139.4118
G1 X139.5009 Y0.6477
G3 X141.0 Y-0.8 I1.4991 J0.0523
G1 X151.0
G3 X152.4991 Y0.6477 I0.0 J1.5
G1 X152.5882 Y3.2
G1 X183.4118
G1 X183.5009 Y0.6477
G3 X185.0 Y-0.8 I1.4991 J0.0523
G1 X195.0
G3 X196.4991 Y0.6477 I0.0 J1.5
G1 X196.5882 Y3.2
G1 X208.0
G3 X209.5 Y4.7 I0.0 J1.5
G1 Y12.0
G1 X218.5
G1 Y4.7
G3 X220.0 Y3.2 I1.5 J0.0
G1 X241.4118
G1 X241.5009 Y0.6477
G3 X243.0 Y-0.8 I1.4991 J0.0523
G1 X253.0
G3 X254.4991 Y0.6477 I0.0 J1.5
G1 X254.5882 Y3.2
G1 X264.5
G1 X267.5
G1 X303.2118
G1 X303.3009 Y0.6477
G3 X304.8 Y-0.8 I1.4991 J0.0523
G1 X314.8
G3 X316.2991 Y0.6477 I0.0 J1.5
G1 X316.6924 Y11.9098
G2 X324.4083 Y19.6257 I7.9951 J-0.2792
G1 X335.1523 Y20.0009
G3 X336.6 Y21.5 I-0.0523 J1.4991
G1 Y31.5
G3 X335.1523 Y32.9991 I-1.5 J0.0
G1 X332.6 Y33.0882
G1 Y46.0
G1 Y49.0
G1 Y63.48
G3 X331.1 Y64.98 I-1.5 J0.0
G1 X329.6
G2 Y65.18 I0.0 J0.1
G1 X331.3117
G3 X332.6 Y65.9118 I0.0 J1.5
G1 X335.1523 Y66.0009
G3 X336.6 Y67.5 I-0.0523 J1.4991
G1 Y77.5
G3 X335.1523 Y78.9991 I-1.5 J0.0
G1 X332.6 Y79.0882
G1 Y141.9118
G1 X335.1523 Y142.0009
G3 X336.6 Y143.5 I-0.0523 J1.4991
G1 Y153.5
G3 X335.1523 Y154.9991 I-1.5 J0.0
G1 X332.6 Y155.0882
G1 Y172.0
G1 Y175.0
G1 Y191.9118
G1 X335.1523 Y192.0009
G3 X336.6 Y193.5 I-0.0523 J1.4991
G1 Y203.5
G3 X335.1523 Y204.9991 I-1.5 J0.0
G1 X332.6 Y205.0882
G1 Y267.9118
G1 X335.1523 Y268.0009
G3 X336.6 Y269.5 I-0.0523 J1.4991
G1 Y279.5
G3 X335.1523 Y280.9991 I-1.5 J0.0
G1 X332.6 Y281.0882
G1 Y298.0
G1 Y301.0
G1 Y313.9118
G1 X335.1523 Y314.0009
G3 X336.6 Y315.5 I-0.0523 J1.4991
G1 Y325.5
G3 X335.1523 Y326.9991 I-1.5 J0.0
G1 X331.1523 Y327.1388
G3 X331.1378 Y327.1392 I-0.0523 J-1.4991
G1 X320.0 Y327.4199
G1 Y342.3
G3 X318.5 Y343.8 I-1.5 J0.0
G1 X316.3882
G1 X316.2991 Y346.3523
G3 X314.8 Y347.8 I-1.4991 J-0.0523
G1 X304.8
G3 X303.3009 Y346.3523 I0.0 J-1.5
G1 X303.2118 Y343.8
G1 X286.3
G1 X283.3
G1 X245.0
G1 X243.25
G3 X241.75 Y342.3 I0.0 J-1.5
G1 Y330.2
G2 X241.25 Y329.7 I-0.5 J0.0
G1 X238.0
G1 X218.0
G1 X214.75
G2 X214.25 Y330.2 I0.0 J0.5
G1 Y342.3
G3 X212.75 Y343.8 I-1.5 J0.0
G1 X211.0
G1 X82.7882
G1 X82.6991 Y346.3523
G3 X81.2 Y347.8 I-1.4991 J-0.0523
G1 X71.2
G3 X69.7009 Y346.3523 I0.0 J-1.5
G1 X69.6118 Y343.8
G1 X52.7
G1 X49.7
G1 X32.7882
G1 X32.6991 Y346.3523
G3 X31.2 Y347.8 I-1.4991 J-0.0523
G1 X21.2
G3 X19.7009 Y346.3523 I0.0 J-1.5
G1 X19.6118 Y343.8
G1 X17.5
G3 X16.0 Y342.3 I0.0 J-1.5
G1 Y327.4199
G1 X4.8622 Y327.1392
G3 X4.8477 Y327.1388 I0.0378 J-1.4995
G1 X0.8477 Y326.9991
G3 X-0.6 Y325.5 I0.0523 J-1.4991
G1 Y315.5
G3 X0.8477 Y314.0009 I1.5 J0.0
G1 X3.4 Y313.9118
G1 Y301.0
G1 Y298.0
G1 Y281.0882
G1 X0.8477 Y280.9991
G3 X-0.6 Y279.5 I0.0523 J-1.4991
G1 Y269.5
G3 X0.8477 Y268.0009 I1.5 J0.0
G1 X3.4 Y267.9118
G1 Y205.0882
G1 X0.8477 Y204.9991
G3 X-0.6 Y203.5 I0.0523 J-1.4991
G1 Y193.5
G3 X0.8477 Y192.0009 I1.5 J0.0
G1 X3.4 Y191.9118
G1 Y175.0
G1 Y172.0
G1 Y155.0882
G1 X0.8477 Y154.9991
G3 X-0.6 Y153.5 I0.0523 J-1.4991
G1 Y143.5
G3 X0.8477 Y142.0009 I1.5 J0.0
G1 X3.4 Y141.9118
G1 Y79.0882
G1 X0.8477 Y78.9991
G3 X-0.6 Y77.5 I0.0523 J-1.4991
G1 Y67.5
G3 X0.8477 Y66.0009 I1.5 J0.0
G1 X3.4 Y65.9118
G1 Y49.0
G1 Y46.0
G1 Y33.0882
G1 X0.8477 Y32.9991
G3 X-0.6 Y31.5 I0.0523 J-1.4991
G1 Y21.5
G3 X0.8477 Y20.0009 I1.5 J0.0
G1 X11.5917 Y19.6257
G2 X19.3076 Y11.9098 I-0.2792 J-7.9951
G1 X19.7009 Y0.6477
G3 X21.2 Y-0.8 I1.4991 J0.0523
G1 X31.2
G3 X32.6991 Y0.6477 I0.0 J1.5
G1 X32.7882 Y3.2
G1 X63.78
G3 X65.28 Y4.7 I0.0 J1.5
G1 Y6.2
G2 X65.48 I0.1 J0.0
G1 Y4.7
G3 X66.98 Y3.2 I1.5 J0.0
G1 X68.5
G0 Z5.0
M5
M30
