( Made using CamBam - http://www.cambam.co.uk )
( top 3/10/2018 4:47:51 PM )
( T1 : 3.0 )
G21 G90 G64 G40
G0 Z5.0
( T1 : 3.0 )
T1 M6
( Tasche 4.5mm )
G17
M3 S18000
G0 X284.8 Y340.8
G1 F300.0 Z-4.5
G1 F800.0 Y335.979
G3 X286.05 Y334.5 I1.5 J0.0
G1 Y333.1184
G3 X284.8 Y332.3 I0.0875 J-1.4974
G3 X283.55 Y333.1184 I-1.3375 J-0.679
G1 Y334.5
G3 X284.8 Y335.979 I-0.25 J1.479
G1 Y340.8
G0 Z5.0
G0 X248.797 Y321.918
G1 F300.0 Z-4.5
G2 F800.0 X248.9 Y321.5 I-0.797 J-0.418
G2 X247.55 Y320.7206 I-0.9 J0.0
G2 Y322.2794 I0.45 J0.7794
G2 X248.797 Y321.918 I0.45 J-0.7794
G1 F300.0 X249.8598 Y322.4754
G2 F800.0 X250.1 Y321.5 I-1.8598 J-0.9754
G2 X246.95 Y319.6813 I-2.1 J0.0
G2 Y323.3187 I1.05 J1.8187
G2 X249.8598 Y322.4754 I1.05 J-1.8187
G1 F300.0 X250.9225 Y323.0327
G2 F800.0 X251.3 Y321.5 I-2.9225 J-1.5327
G2 X246.35 Y318.6421 I-3.3 J0.0
G2 Y324.3579 I1.65 J2.8579
G2 X250.9225 Y323.0327 I1.65 J-2.8579
G1 F300.0 X251.9852 Y323.5901
G2 F800.0 X252.5 Y321.5 I-3.9852 J-2.0901
G2 X245.75 Y317.6029 I-4.5 J0.0
G2 Y325.3971 I2.25 J3.8971
G2 X251.9852 Y323.5901 I2.25 J-3.8971
G0 Z5.0
G0 X227.65 Y333.1184
G1 F300.0 Z-4.5
G3 F800.0 X226.4 Y332.3 I0.0875 J-1.4974
G3 X225.15 Y333.1184 I-1.3375 J-0.679
G1 Y334.5
G3 X226.4 Y335.979 I-0.25 J1.479
G1 Y340.8
G1 Y335.979
G3 X227.65 Y334.5 I1.5 J0.0
G1 Y333.1184
G0 Z5.0
G0 X321.1 Y299.5
G1 F300.0 Z-4.5
G3 F800.0 X321.9184 Y300.75 I-0.679 J1.3375
G1 X323.3
G3 X324.779 Y299.5 I1.479 J0.25
G1 X329.6
G1 X324.779
G3 X323.3 Y298.25 I0.0 J-1.5
G1 X321.9184
G3 X321.1 Y299.5 I-1.4974 J-0.0875
G0 Z5.0
G0 X321.9184 Y174.75
G1 F300.0 Z-4.5
G1 F800.0 X323.3
G3 X324.779 Y173.5 I1.479 J0.25
G1 X329.6
G1 X324.779
G3 X323.3 Y172.25 I0.0 J-1.5
G1 X321.9184
G3 X321.1 Y173.5 I-1.4974 J-0.0875
G3 X321.9184 Y174.75 I-0.679 J1.3375
G0 Z5.0
G0 Y48.75
G1 F300.0 Z-4.5
G1 F800.0 X323.3
G3 X324.779 Y47.5 I1.479 J0.25
G1 X329.6
G1 X324.779
G3 X323.3 Y46.25 I0.0 J-1.5
G1 X321.9184
G3 X321.1 Y47.5 I-1.4974 J-0.0875
G3 X321.9184 Y48.75 I-0.679 J1.3375
G0 Z5.0
G0 X286.05 Y13.8816
G1 F300.0 Z-4.5
G1 F800.0 Y12.5
G3 X284.8 Y11.021 I0.25 J-1.479
G1 Y6.2
G1 Y11.021
G3 X283.55 Y12.5 I-1.5 J0.0
G1 Y13.8816
G3 X284.8 Y14.7 I-0.0875 J1.4974
G3 X286.05 Y13.8816 I1.3375 J0.679
G0 Z5.0
G0 X169.25
G1 F300.0 Z-4.5
G1 F800.0 Y12.5
G3 X168.0 Y11.021 I0.25 J-1.479
G1 Y6.2
G1 Y11.021
G3 X166.75 Y12.5 I-1.5 J0.0
G1 Y13.8816
G3 X168.0 Y14.7 I-0.0875 J1.4974
G3 X169.25 Y13.8816 I1.3375 J0.679
G0 Z5.0
G0 X52.45
G1 F300.0 Z-4.5
G1 F800.0 Y12.5
G3 X51.2 Y11.021 I0.25 J-1.479
G1 Y6.2
G1 Y11.021
G3 X49.95 Y12.5 I-1.5 J0.0
G1 Y13.8816
G3 X51.2 Y14.7 I-0.0875 J1.4974
G3 X52.45 Y13.8816 I1.3375 J0.679
G0 Z5.0
G0 X14.0816 Y46.25
G1 F300.0 Z-4.5
G1 F800.0 X12.7
G3 X11.221 Y47.5 I-1.479 J-0.25
G1 X6.4
G1 X11.221
G3 X12.7 Y48.75 I0.0 J1.5
G1 X14.0816
G3 X14.9 Y47.5 I1.4974 J0.0875
G3 X14.0816 Y46.25 I0.679 J-1.3375
G0 Z5.0
G0 Y172.25
G1 F300.0 Z-4.5
G1 F800.0 X12.7
G3 X11.221 Y173.5 I-1.479 J-0.25
G1 X6.4
G1 X11.221
G3 X12.7 Y174.75 I0.0 J1.5
G1 X14.0816
G3 X14.9 Y173.5 I1.4974 J0.0875
G3 X14.0816 Y172.25 I0.679 J-1.3375
G0 Z5.0
G0 Y298.25
G1 F300.0 Z-4.5
G1 F800.0 X12.7
G3 X11.221 Y299.5 I-1.479 J-0.25
G1 X6.4
G1 X11.221
G3 X12.7 Y300.75 I0.0 J1.5
G1 X14.0816
G3 X14.9 Y299.5 I1.4974 J0.0875
G3 X14.0816 Y298.25 I0.679 J-1.3375
G0 Z5.0
G0 X49.95 Y333.1184
G1 F300.0 Z-4.5
G1 F800.0 Y334.5
G3 X51.2 Y335.979 I-0.25 J1.479
G1 Y340.8
G1 Y335.979
G3 X52.45 Y334.5 I1.5 J0.0
G1 Y333.1184
G3 X51.2 Y332.3 I0.0875 J-1.4974
G3 X49.95 Y333.1184 I-1.3375 J-0.679
G0 Z5.0
G0 X87.1392 Y321.7628
G1 F300.0 Z-4.5
G2 F800.0 X87.55 Y322.2794 I0.8608 J-0.2628
G2 X88.9 Y321.5 I0.45 J-0.7794
G2 X87.55 Y320.7206 I-0.9 J0.0
G2 X87.1392 Y321.7628 I0.45 J0.7794
G1 F300.0 X85.9915 Y322.1133
G2 F800.0 X86.95 Y323.3187 I2.0085 J-0.6133
G2 X90.1 Y321.5 I1.05 J-1.8187
G2 X86.95 Y319.6813 I-2.1 J0.0
G2 X85.9915 Y322.1133 I1.05 J1.8187
G1 F300.0 X84.8439 Y322.4637
G2 F800.0 X86.35 Y324.3579 I3.1561 J-0.9637
G2 X91.3 Y321.5 I1.65 J-2.8579
G2 X86.35 Y318.6421 I-3.3 J0.0
G2 X84.8439 Y322.4637 I1.65 J2.8579
G1 F300.0 X83.6962 Y322.8142
G2 F800.0 X85.75 Y325.3971 I4.3038 J-1.3142
G2 X92.5 Y321.5 I2.25 J-3.8971
G2 X85.75 Y317.6029 I-4.5 J0.0
G2 X83.6962 Y322.8142 I2.25 J3.8971
G0 Z5.0
G0 X108.35 Y333.1184
G1 F300.0 Z-4.5
G1 F800.0 Y334.5
G3 X109.6 Y335.979 I-0.25 J1.479
G1 Y340.8
G1 Y335.979
G3 X110.85 Y334.5 I1.5 J0.0
G1 Y333.1184
G3 X109.6 Y332.3 I0.0875 J-1.4974
G3 X108.35 Y333.1184 I-1.3375 J-0.679
( Profilo esterno )
S18000
G0 Z5.0
G0 X3.4 Y175.0
G1 F300.0 Z-7.0
G1 F800.0 Y172.0
G1 Y155.0882
G1 X0.8477 Y154.9991
G3 X-0.6 Y153.5 I0.0523 J-1.4991
G1 Y143.5
G3 X0.8477 Y142.0009 I1.5 J0.0
G1 X3.4 Y141.9118
G1 Y79.0882
G1 X0.8477 Y78.9991
G3 X-0.6 Y77.5 I0.0523 J-1.4991
G1 Y67.5
G3 X0.8477 Y66.0009 I1.5 J0.0
G1 X3.4 Y65.9118
G1 Y49.0
G1 Y46.0
G1 Y10.7
G3 X10.9 Y3.2 I7.5 J0.0
G1 X49.7
G1 X52.7
G1 X69.6618
G1 X69.7509 Y0.6477
G3 X71.25 Y-0.8 I1.4991 J0.0523
G1 X81.25
G3 X82.7491 Y0.6477 I0.0 J1.5
G1 X82.8382 Y3.2
G1 X143.4118
G1 X143.5009 Y0.6477
G3 X145.0 Y-0.8 I1.4991 J0.0523
G1 X155.0
G3 X156.4991 Y0.6477 I0.0 J1.5
G1 X156.5882 Y3.2
G1 X166.5
G1 X169.5
G1 X179.4118
G1 X179.5009 Y0.6477
G3 X181.0 Y-0.8 I1.4991 J0.0523
G1 X191.0
G3 X192.4991 Y0.6477 I0.0 J1.5
G1 X192.5882 Y3.2
G1 X253.1618
G1 X253.2509 Y0.6477
G3 X254.75 Y-0.8 I1.4991 J0.0523
G1 X264.75
G3 X266.2491 Y0.6477 I0.0 J1.5
G1 X266.3382 Y3.2
G1 X283.3
G1 X286.3
G1 X325.1
G3 X332.6 Y10.7 I0.0 J7.5
G1 Y46.0
G1 Y49.0
G1 Y65.9118
G1 X335.1523 Y66.0009
G3 X336.6 Y67.5 I-0.0523 J1.4991
G1 Y77.5
G3 X335.1523 Y78.9991 I-1.5 J0.0
G1 X332.6 Y79.0882
G1 Y141.9118
G1 X335.1523 Y142.0009
G3 X336.6 Y143.5 I-0.0523 J1.4991
G1 Y153.5
G3 X335.1523 Y154.9991 I-1.5 J0.0
G1 X332.6 Y155.0882
G1 Y172.0
G1 Y175.0
G1 Y191.9118
G1 X335.1523 Y192.0009
G3 X336.6 Y193.5 I-0.0523 J1.4991
G1 Y203.5
G3 X335.1523 Y204.9991 I-1.5 J0.0
G1 X332.6 Y205.0882
G1 Y267.9118
G1 X335.1523 Y268.0009
G3 X336.6 Y269.5 I-0.0523 J1.4991
G1 Y279.5
G3 X335.1523 Y280.9991 I-1.5 J0.0
G1 X332.6 Y281.0882
G1 Y298.0
G1 Y301.0
G1 Y336.3
G3 X325.1 Y343.8 I-7.5 J0.0
G1 X286.3
G1 X283.3
G1 X266.3382
G1 X266.2491 Y346.3523
G3 X264.75 Y347.8 I-1.4991 J-0.0523
G1 X254.75
G3 X253.2509 Y346.3523 I0.0 J-1.5
G1 X253.1618 Y343.8
G1 X227.9
G1 X224.9
G1 X199.5882
G1 X199.4991 Y346.3523
G3 X198.0 Y347.8 I-1.4991 J-0.0523
G1 X188.0
G3 X186.5009 Y346.3523 I0.0 J-1.5
G1 X186.4118 Y343.8
G1 X149.5882
G1 X149.4991 Y346.3523
G3 X148.0 Y347.8 I-1.4991 J-0.0523
G1 X138.0
G3 X136.5009 Y346.3523 I0.0 J-1.5
G1 X136.4118 Y343.8
G1 X111.1
G1 X108.1
G1 X82.8382
G1 X82.7491 Y346.3523
G3 X81.25 Y347.8 I-1.4991 J-0.0523
G1 X71.25
G3 X69.7509 Y346.3523 I0.0 J-1.5
G1 X69.6618 Y343.8
G1 X52.7
G1 X49.7
G1 X10.9
G3 X3.4 Y336.3 I0.0 J-7.5
G1 Y301.0
G1 Y298.0
G1 Y281.0882
G1 X0.8477 Y280.9991
G3 X-0.6 Y279.5 I0.0523 J-1.4991
G1 Y269.5
G3 X0.8477 Y268.0009 I1.5 J0.0
G1 X3.4 Y267.9118
G1 Y205.0882
G1 X0.8477 Y204.9991
G3 X-0.6 Y203.5 I0.0523 J-1.4991
G1 Y193.5
G3 X0.8477 Y192.0009 I1.5 J0.0
G1 X3.4 Y191.9118
G1 Y175.0
( Profilo interno )
S18000
G0 Z5.0
G0 X297.15 Y297.1917
G1 F300.0 Z-7.0
G2 F800.0 X301.65 Y292.6917 I0.0 J-4.5
G1 Y34.44
G2 X297.15 Y29.94 I-4.5 J0.0
G1 X38.85
G2 X34.35 Y34.44 I0.0 J4.5
G1 Y292.6917
G2 X38.85 Y297.1917 I4.5 J0.0
G1 X297.15
G0 Z5.0
M5
M30
