( Made using CamBam - http://www.cambam.co.uk )
( right 3/3/2018 6:39:28 PM )
( T0 : 3.0 )
( T1 : 3.0 )
G21 G90 G64 G40
G0 Z30.0
( T0 : 3.0 )
T0 M6
( Foratura 1 )
G17
M3 S18000
G0 X9.25 Y336.7
G0 Z30.0
G0 X9.35 Y336.7
G1 F300.0 Z0.0
G2 F800.0 X9.2 Y336.6134 Z-2.3333 I-0.1 J0.0
G2 Y336.7866 Z-4.6667 I0.05 J0.0866
G2 X9.35 Y336.7 Z-7.0 I0.05 J-0.0866
G2 X9.2 Y336.6134 I-0.1 J0.0
G2 Y336.7866 I0.05 J0.0866
G2 X9.35 Y336.7 I0.05 J-0.0866
G0 Z30.0
G0 X53.6 Y380.45
G1 F300.0 Z0.0
G2 F800.0 X53.45 Y380.3634 Z-2.3333 I-0.1 J0.0
G2 Y380.5366 Z-4.6667 I0.05 J0.0866
G2 X53.6 Y380.45 Z-7.0 I0.05 J-0.0866
G2 X53.45 Y380.3634 I-0.1 J0.0
G2 Y380.5366 I0.05 J0.0866
G2 X53.6 Y380.45 I0.05 J-0.0866
G0 Z30.0
G0 X179.6
G1 F300.0 Z0.0
G2 F800.0 X179.45 Y380.3634 Z-2.3333 I-0.1 J0.0
G2 Y380.5366 Z-4.6667 I0.05 J0.0866
G2 X179.6 Y380.45 Z-7.0 I0.05 J-0.0866
G2 X179.45 Y380.3634 I-0.1 J0.0
G2 Y380.5366 I0.05 J0.0866
G2 X179.6 Y380.45 I0.05 J-0.0866
G0 Z30.0
G0 X305.6
G1 F300.0 Z0.0
G2 F800.0 X305.45 Y380.3634 Z-2.3333 I-0.1 J0.0
G2 Y380.5366 Z-4.6667 I0.05 J0.0866
G2 X305.6 Y380.45 Z-7.0 I0.05 J-0.0866
G2 X305.45 Y380.3634 I-0.1 J0.0
G2 Y380.5366 I0.05 J0.0866
G2 X305.6 Y380.45 I0.05 J-0.0866
G0 Z30.0
G0 X349.85 Y336.7
G1 F300.0 Z0.0
G2 F800.0 X349.7 Y336.6134 Z-2.3333 I-0.1 J0.0
G2 Y336.7866 Z-4.6667 I0.05 J0.0866
G2 X349.85 Y336.7 Z-7.0 I0.05 J-0.0866
G2 X349.7 Y336.6134 I-0.1 J0.0
G2 Y336.7866 I0.05 J0.0866
G2 X349.85 Y336.7 I0.05 J-0.0866
G0 Z30.0
G0 Y202.6
G1 F300.0 Z0.0
G2 F800.0 X349.7 Y202.5134 Z-2.3333 I-0.1 J0.0
G2 Y202.6866 Z-4.6667 I0.05 J0.0866
G2 X349.85 Y202.6 Z-7.0 I0.05 J-0.0866
G2 X349.7 Y202.5134 I-0.1 J0.0
G2 Y202.6866 I0.05 J0.0866
G2 X349.85 Y202.6 I0.05 J-0.0866
G0 Z30.0
G0 Y70.7
G1 F300.0 Z0.0
G2 F800.0 X349.7 Y70.6134 Z-2.3333 I-0.1 J0.0
G2 Y70.7866 Z-4.6667 I0.05 J0.0866
G2 X349.85 Y70.7 Z-7.0 I0.05 J-0.0866
G2 X349.7 Y70.6134 I-0.1 J0.0
G2 Y70.7866 I0.05 J0.0866
G2 X349.85 Y70.7 I0.05 J-0.0866
G0 Z30.0
G0 X305.6 Y46.45
G1 F300.0 Z0.0
G2 F800.0 X305.45 Y46.3634 Z-2.3333 I-0.1 J0.0
G2 Y46.5366 Z-4.6667 I0.05 J0.0866
G2 X305.6 Y46.45 Z-7.0 I0.05 J-0.0866
G2 X305.45 Y46.3634 I-0.1 J0.0
G2 Y46.5366 I0.05 J0.0866
G2 X305.6 Y46.45 I0.05 J-0.0866
G0 Z30.0
G0 X179.6
G1 F300.0 Z0.0
G2 F800.0 X179.45 Y46.3634 Z-2.3333 I-0.1 J0.0
G2 Y46.5366 Z-4.6667 I0.05 J0.0866
G2 X179.6 Y46.45 Z-7.0 I0.05 J-0.0866
G2 X179.45 Y46.3634 I-0.1 J0.0
G2 Y46.5366 I0.05 J0.0866
G2 X179.6 Y46.45 I0.05 J-0.0866
G0 Z30.0
G0 X53.6
G1 F300.0 Z0.0
G2 F800.0 X53.45 Y46.3634 Z-2.3333 I-0.1 J0.0
G2 Y46.5366 Z-4.6667 I0.05 J0.0866
G2 X53.6 Y46.45 Z-7.0 I0.05 J-0.0866
G2 X53.45 Y46.3634 I-0.1 J0.0
G2 Y46.5366 I0.05 J0.0866
G2 X53.6 Y46.45 I0.05 J-0.0866
G0 Z30.0
G0 X9.35 Y70.7
G1 F300.0 Z0.0
G2 F800.0 X9.2 Y70.6134 Z-2.3333 I-0.1 J0.0
G2 Y70.7866 Z-4.6667 I0.05 J0.0866
G2 X9.35 Y70.7 Z-7.0 I0.05 J-0.0866
G2 X9.2 Y70.6134 I-0.1 J0.0
G2 Y70.7866 I0.05 J0.0866
G2 X9.35 Y70.7 I0.05 J-0.0866
G0 Z30.0
G0 Y202.6
G1 F300.0 Z0.0
G2 F800.0 X9.2 Y202.5134 Z-2.3333 I-0.1 J0.0
G2 Y202.6866 Z-4.6667 I0.05 J0.0866
G2 X9.35 Y202.6 Z-7.0 I0.05 J-0.0866
G2 X9.2 Y202.5134 I-0.1 J0.0
G2 Y202.6866 I0.05 J0.0866
G2 X9.35 Y202.6 I0.05 J-0.0866
( Tasca 1.5 )
G0 Z5.0
( T1 : 3.0 )
T1 M6
M3 S18000
G0 X350.9 Y366.7
G1 F300.0 Z-1.5
G2 F800.0 X351.7 I0.4 J0.0
G1 Y356.7
G2 X350.9 I-0.4 J0.0
G1 Y366.7
G1 F300.0 X349.7
G2 F800.0 X352.9 I1.6 J0.0
G1 Y356.7
G2 X349.7 I-1.6 J0.0
G1 Y366.7
G0 Z5.0
G0 X209.8976 Y381.9566
G1 F300.0 Z-1.5
G2 F800.0 X209.5 Y381.6 I-0.3976 J0.0434
G1 X199.5
G2 Y382.4 I0.0 J0.4
G1 X209.5
G2 X209.8976 Y381.9566 I0.0 J-0.4
G1 F300.0 X211.0906 Y381.8264
G2 F800.0 X209.5 Y380.4 I-1.5906 J0.1736
G1 X199.5
G2 Y383.6 I0.0 J1.6
G1 X209.5
G2 X211.0906 Y381.8264 I0.0 J-1.6
G0 Z5.0
G0 X159.9 Y381.9987
G1 F300.0 Z-1.5
G2 F800.0 X159.5 Y381.6 I-0.4 J0.0013
G1 X149.5
G2 Y382.4 I0.0 J0.4
G1 X159.5
G2 X159.9 Y381.9987 I0.0 J-0.4
G1 F300.0 X161.1 Y381.9946
G2 F800.0 X159.5 Y380.4 I-1.6 J0.0054
G1 X149.5
G2 Y383.6 I0.0 J1.6
G1 X159.5
G2 X161.1 Y381.9946 I0.0 J-1.6
G0 Z5.0
G0 X8.098 Y366.7397
G1 F300.0 Z-1.5
G2 F800.0 X8.1 Y366.7 I-0.398 J-0.0397
G1 Y356.7
G2 X7.3 I-0.4 J0.0
G1 Y366.7
G2 X8.098 Y366.7397 I0.4 J0.0
G1 F300.0 X9.2921 Y366.8587
G2 F800.0 X9.3 Y366.7 I-1.5921 J-0.1587
G1 Y356.7
G2 X6.1 I-1.6 J0.0
G1 Y366.7
G2 X9.2921 Y366.8587 I1.6 J0.0
G0 Z5.0
G0 X7.702 Y51.2
G1 F300.0 Z-1.5
G2 F800.0 X8.1 Y50.8 I-0.002 J-0.4
G1 Y40.8
G2 X7.3 I-0.4 J0.0
G1 Y50.8
G2 X7.702 Y51.2 I0.4 J0.0
G1 F300.0 X7.7081 Y52.4
G2 F800.0 X9.3 Y50.8 I-0.0081 J-1.6
G1 Y40.8
G2 X6.1 I-1.6 J0.0
G1 Y50.8
G2 X7.7081 Y52.4 I1.6 J0.0
G0 Z5.0
G0 X149.1002 Y48.0124
G1 F300.0 Z-1.5
G2 F800.0 X149.5 Y48.4 I0.3998 J-0.0124
G1 X159.5
G2 Y47.6 I0.0 J-0.4
G1 X149.5
G2 X149.1002 Y48.0124 I0.0 J0.4
G1 F300.0 X147.9008 Y48.0496
G2 F800.0 X149.5 Y49.6 I1.5992 J-0.0496
G1 X159.5
G2 Y46.4 I0.0 J-1.6
G1 X149.5
G2 X147.9008 Y48.0496 I0.0 J1.6
G0 Z5.0
G0 X199.1 Y48.0004
G1 F300.0 Z-1.5
G2 F800.0 X199.5 Y48.4 I0.4 J-0.0004
G1 X209.5
G2 Y47.6 I0.0 J-0.4
G1 X199.5
G2 X199.1 Y48.0004 I0.0 J0.4
G1 F300.0 X197.9 Y48.0015
G2 F800.0 X199.5 Y49.6 I1.6 J-0.0015
G1 X209.5
G2 Y46.4 I0.0 J-1.6
G1 X199.5
G2 X197.9 Y48.0015 I0.0 J1.6
G0 Z5.0
G0 X350.9
G1 F300.0 Z-1.5
G1 F800.0 Y50.8
G2 X351.7 I0.4 J0.0
G1 Y40.8
G2 X350.9 I-0.4 J0.0
G1 Y48.0015
G1 F300.0 X349.7
G1 F800.0 Y50.8
G2 X352.9 I1.6 J0.0
G1 Y40.8
G2 X349.7 I-1.6 J0.0
G1 Y48.0015
( Tasca 4.7 )
S18000
G0 Z5.0
G0 X27.5 Y48.4
G1 F300.0 Z-4.7
G1 F800.0 X37.5
G2 Y47.6 I0.0 J-0.4
G1 X27.5
G2 Y48.4 I0.0 J0.4
G1 F300.0 Y49.6
G1 F800.0 X37.5
G2 Y46.4 I0.0 J-1.6
G1 X27.5
G2 Y49.6 I0.0 J1.6
G0 Z5.0
G0 X9.6 Y48.1
G1 F300.0 Z-4.7
G1 F800.0 Y43.5
G1 X7.6
G3 X7.3 Y43.4833 I0.0 J-2.7
G1 Y48.1167
G3 X7.6 Y48.1 I0.3 J2.6833
G1 X9.6
G1 F300.0 Y49.3
G1 F800.0 X10.8
G1 Y42.3
G1 X7.6
G3 X6.1 Y40.8 I0.0 J-1.5
G1 Y50.8
G3 X7.6 Y49.3 I1.5 J0.0
G1 X9.6
G0 Z5.0
G0 X7.7183 Y90.4004
G1 F300.0 Z-4.7
G2 F800.0 X7.3 Y90.8 I-0.0183 J0.3996
G1 Y100.8
G2 X8.1 I0.4 J0.0
G1 Y90.8
G2 X7.7183 Y90.4004 I-0.4 J0.0
G1 F300.0 X7.7732 Y89.2017
G2 F800.0 X6.1 Y90.8 I-0.0732 J1.5983
G1 Y100.8
G2 X9.3 I1.6 J0.0
G1 Y90.8
G2 X7.7732 Y89.2017 I-1.6 J0.0
G0 Z5.0
G0 X73.1611 Y48.2125
G1 F300.0 Z-4.7
G2 F800.0 X73.5 Y48.4 I0.3389 J-0.2125
G1 X83.5
G2 Y47.6 I0.0 J-0.4
G1 X73.5
G2 X73.1611 Y48.2125 I0.0 J0.4
G1 F300.0 X72.1443 Y48.8498
G2 F800.0 X73.5 Y49.6 I1.3557 J-0.8498
G1 X83.5
G2 Y46.4 I0.0 J-1.6
G1 X73.5
G2 X72.1443 Y48.8498 I0.0 J1.6
G0 Z5.0
G0 X152.1833 Y48.4
G1 F300.0 Z-4.7
G1 F800.0 X156.8167
G3 X156.8 Y48.1 I2.6833 J-0.3
G1 Y46.1
G1 X152.2
G1 Y48.1
G3 X152.1833 Y48.4 I-2.7 J0.0
G1 F300.0 Y49.6
G1 F800.0 X159.5
G3 X158.0 Y48.1 I0.0 J-1.5
G1 Y44.9
G1 X151.0
G1 Y48.1
G3 X149.5 Y49.6 I-1.5 J0.0
G1 X152.1833
G0 Z5.0
G0 X202.1833 Y48.4
G1 F300.0 Z-4.7
G1 F800.0 X206.8167
G3 X206.8 Y48.1 I2.6833 J-0.3
G1 Y46.1
G1 X202.2
G1 Y48.1
G3 X202.1833 Y48.4 I-2.7 J0.0
G1 F300.0 Y49.6
G1 F800.0 X209.5
G3 X208.0 Y48.1 I0.0 J-1.5
G1 Y44.9
G1 X201.0
G1 Y48.1
G3 X199.5 Y49.6 I-1.5 J0.0
G1 X202.1833
G0 Z5.0
G0 X275.1001 Y48.0087
G1 F300.0 Z-4.7
G2 F800.0 X275.5 Y48.4 I0.3999 J-0.0087
G1 X285.5
G2 Y47.6 I0.0 J-0.4
G1 X275.5
G2 X275.1001 Y48.0087 I0.0 J0.4
G1 F300.0 X273.9004 Y48.0349
G2 F800.0 X275.5 Y49.6 I1.5996 J-0.0349
G1 X285.5
G2 Y46.4 I0.0 J-1.6
G1 X275.5
G2 X273.9004 Y48.0349 I0.0 J1.6
G0 Z5.0
G0 X321.1 Y48.0003
G1 F300.0 Z-4.7
G2 F800.0 X321.5 Y48.4 I0.4 J-0.0003
G1 X331.5
G2 Y47.6 I0.0 J-0.4
G1 X321.5
G2 X321.1 Y48.0003 I0.0 J0.4
G1 F300.0 X319.9 Y48.0012
G2 F800.0 X321.5 Y49.6 I1.6 J-0.0012
G1 X331.5
G2 Y46.4 I0.0 J-1.6
G1 X321.5
G2 X319.9 Y48.0012 I0.0 J1.6
G0 Z5.0
G0 X349.4
G1 F300.0 Z-4.7
G1 F800.0 Y48.1
G1 X351.4
G3 X351.7 Y48.1167 I0.0 J2.7
G1 Y43.4833
G3 X351.4 Y43.5 I-0.3 J-2.6833
G1 X349.4
G1 Y48.0012
G1 F300.0 X348.2
G1 F800.0 Y49.3
G1 X351.4
G3 X352.9 Y50.8 I0.0 J1.5
G1 Y40.8
G3 X351.4 Y42.3 I-1.5 J0.0
G1 X348.2
G1 Y48.0012
G0 Z5.0
G0 X351.2711 Y90.401
G1 F300.0 Z-4.7
G2 F800.0 X350.9 Y90.8 I0.0289 J0.399
G1 Y100.8
G2 X351.7 I0.4 J0.0
G1 Y90.8
G2 X351.2711 Y90.401 I-0.4 J0.0
G1 F300.0 X351.1844 Y89.2042
G2 F800.0 X349.7 Y90.8 I0.1156 J1.5958
G1 Y100.8
G2 X352.9 I1.6 J0.0
G1 Y90.8
G2 X351.1844 Y89.2042 I-1.6 J0.0
G0 Z5.0
G0 X351.2994 Y172.1
G1 F300.0 Z-4.7
G2 F800.0 X350.9 Y172.5 I0.0006 J0.4
G1 Y182.5
G2 X351.7 I0.4 J0.0
G1 Y172.5
G2 X351.2994 Y172.1 I-0.4 J0.0
G1 F300.0 X351.2978 Y170.9
G2 F800.0 X349.7 Y172.5 I0.0022 J1.6
G1 Y182.5
G2 X352.9 I1.6 J0.0
G1 Y172.5
G2 X351.2978 Y170.9 I-1.6 J0.0
G0 Z5.0
G0 X351.3 Y222.1
G1 F300.0 Z-4.7
G2 F800.0 X350.9 Y222.5 I0.0 J0.4
G1 Y232.5
G2 X351.7 I0.4 J0.0
G1 Y222.5
G2 X351.3 Y222.1 I-0.4 J0.0
G1 F300.0 X351.2999 Y220.9
G2 F800.0 X349.7 Y222.5 I0.0001 J1.6
G1 Y232.5
G2 X352.9 I1.6 J0.0
G1 Y222.5
G2 X351.2999 Y220.9 I-1.6 J0.0
G0 Z5.0
G0 X351.3 Y306.3
G1 F300.0 Z-4.7
G2 F800.0 X350.9 Y306.7 I0.0 J0.4
G1 Y316.7
G2 X351.7 I0.4 J0.0
G1 Y306.7
G2 X351.3 Y306.3 I-0.4 J0.0
G1 F300.0 Y305.1
G2 F800.0 X349.7 Y306.7 I0.0 J1.6
G1 Y316.7
G2 X352.9 I1.6 J0.0
G1 Y306.7
G2 X351.3 Y305.1 I-1.6 J0.0
G0 Z5.0
G0 X351.7 Y359.3833
G1 F300.0 Z-4.7
G3 F800.0 X351.4 Y359.4 I-0.3 J-2.6833
G1 X349.4
G1 Y364.0
G1 X351.4
G3 X351.7 Y364.0167 I0.0 J2.7
G1 Y359.3833
G1 F300.0 X352.9
G1 F800.0 Y356.7
G3 X351.4 Y358.2 I-1.5 J0.0
G1 X348.2
G1 Y365.2
G1 X351.4
G3 X352.9 Y366.7 I0.0 J1.5
G1 Y359.3833
G0 Z5.0
G0 X332.2771 Y365.8504
G1 F300.0 Z-4.7
G2 F800.0 X331.3 Y366.0 I-0.4771 J0.1496
G2 X332.3 I0.5 J0.0
G2 X332.2771 Y365.8504 I-0.5 J0.0
G1 F300.0 X333.4221 Y365.4913
G2 F800.0 X330.1 Y366.0 I-1.6221 J0.5087
G2 X333.5 I1.7 J0.0
G2 X333.4221 Y365.4913 I-1.7 J0.0
G1 F300.0 X334.5671 Y365.1323
G2 F800.0 X328.9 Y366.0 I-2.7671 J0.8677
G2 X334.7 I2.9 J0.0
G2 X334.5671 Y365.1323 I-2.9 J0.0
G1 F300.0 X335.7122 Y364.7732
G2 F800.0 X327.7 Y366.0 I-3.9122 J1.2268
G2 X335.9 I4.1 J0.0
G2 X335.7122 Y364.7732 I-4.1 J0.0
G1 F300.0 X336.8572 Y364.4141
G2 F800.0 X326.5 Y366.0 I-5.0572 J1.5859
G2 X337.1 I5.3 J0.0
G2 X336.8572 Y364.4141 I-5.3 J0.0
G1 F300.0 X338.0022 Y364.0551
G2 F800.0 X325.3 Y366.0 I-6.2022 J1.9449
G2 X338.3 I6.5 J0.0
G2 X338.0022 Y364.0551 I-6.5 J0.0
G0 Z5.0
G0 X285.8785 Y381.8706
G1 F300.0 Z-4.7
G2 F800.0 X285.5 Y381.6 I-0.3785 J0.1294
G1 X275.5
G2 Y382.4 I0.0 J0.4
G1 X285.5
G2 X285.8785 Y381.8706 I0.0 J-0.4
G1 F300.0 X287.014 Y381.4825
G2 F800.0 X285.5 Y380.4 I-1.514 J0.5175
G1 X275.5
G2 Y383.6 I0.0 J1.6
G1 X285.5
G2 X287.014 Y381.4825 I0.0 J-1.6
G0 Z5.0
G0 X206.8167 Y382.4
G1 F300.0 Z-4.7
G3 F800.0 X206.8 Y382.1 I2.6833 J-0.3
G1 Y380.1
G1 X202.2
G1 Y382.1
G3 X202.1833 Y382.4 I-2.7 J0.0
G1 X206.8167
G1 F300.0 Y383.6
G1 F800.0 X209.5
G3 X208.0 Y382.1 I0.0 J-1.5
G1 Y378.9
G1 X201.0
G1 Y382.1
G3 X199.5 Y383.6 I-1.5 J0.0
G1 X206.8167
G0 Z5.0
G0 X156.8167 Y382.4
G1 F300.0 Z-4.7
G3 F800.0 X156.8 Y382.1 I2.6833 J-0.3
G1 Y380.1
G1 X152.2
G1 Y382.1
G3 X152.1833 Y382.4 I-2.7 J0.0
G1 X156.8167
G1 F300.0 Y383.6
G1 F800.0 X159.5
G3 X158.0 Y382.1 I0.0 J-1.5
G1 Y378.9
G1 X151.0
G1 Y382.1
G3 X149.5 Y383.6 I-1.5 J0.0
G1 X156.8167
G0 Z5.0
G0 X83.8999 Y382.0087
G1 F300.0 Z-4.7
G2 F800.0 X83.5 Y381.6 I-0.3999 J-0.0087
G1 X73.5
G2 Y382.4 I0.0 J0.4
G1 X83.5
G2 X83.8999 Y382.0087 I0.0 J-0.4
G1 F300.0 X85.0996 Y382.0349
G2 F800.0 X83.5 Y380.4 I-1.5996 J-0.0349
G1 X73.5
G2 Y383.6 I0.0 J1.6
G1 X83.5
G2 X85.0996 Y382.0349 I0.0 J-1.6
G0 Z5.0
G0 X48.7584 Y366.1997
G1 F300.0 Z-4.7
G2 F800.0 X48.8 Y366.0 I-0.4584 J-0.1997
G2 X47.8 I-0.5 J0.0
G2 X48.7584 Y366.1997 I0.5 J0.0
G1 F300.0 X49.8585 Y366.6791
G2 F800.0 X50.0 Y366.0 I-1.5585 J-0.6791
G2 X46.6 I-1.7 J0.0
G2 X49.8585 Y366.6791 I1.7 J0.0
G1 F300.0 X50.9586 Y367.1584
G2 F800.0 X51.2 Y366.0 I-2.6586 J-1.1584
G2 X45.4 I-2.9 J0.0
G2 X50.9586 Y367.1584 I2.9 J0.0
G1 F300.0 X52.0587 Y367.6378
G2 F800.0 X52.4 Y366.0 I-3.7587 J-1.6378
G2 X44.2 I-4.1 J0.0
G2 X52.0587 Y367.6378 I4.1 J0.0
G1 F300.0 X53.1588 Y368.1171
G2 F800.0 X53.6 Y366.0 I-4.8588 J-2.1171
G2 X43.0 I-5.3 J0.0
G2 X53.1588 Y368.1171 I5.3 J0.0
G1 F300.0 X54.2589 Y368.5965
G2 F800.0 X54.8 Y366.0 I-5.9589 J-2.5965
G2 X41.8 I-6.5 J0.0
G2 X54.2589 Y368.5965 I6.5 J0.0
G0 Z5.0
G0 X9.6 Y364.0
G1 F300.0 Z-4.7
G1 F800.0 Y359.4
G1 X7.6
G3 X7.3 Y359.3833 I0.0 J-2.7
G1 Y364.0167
G3 X7.6 Y364.0 I0.3 J2.6833
G1 X9.6
G1 F300.0 Y365.2
G1 F800.0 X10.8
G1 Y358.2
G1 X7.6
G3 X6.1 Y356.7 I0.0 J-1.5
G1 Y366.7
G3 X7.6 Y365.2 I1.5 J0.0
G1 X9.6
G0 Z5.0
G0 X7.7157 Y317.0997
G1 F300.0 Z-4.7
G2 F800.0 X8.1 Y316.7 I-0.0157 J-0.3997
G1 Y306.7
G2 X7.3 I-0.4 J0.0
G1 Y316.7
G2 X7.7157 Y317.0997 I0.4 J0.0
G1 F300.0 X7.7626 Y318.2988
G2 F800.0 X9.3 Y316.7 I-0.0626 J-1.5988
G1 Y306.7
G2 X6.1 I-1.6 J0.0
G1 Y316.7
G2 X7.7626 Y318.2988 I1.6 J0.0
G0 Z5.0
G0 X7.7003 Y232.9
G1 F300.0 Z-4.7
G2 F800.0 X8.1 Y232.5 I-0.0003 J-0.4
G1 Y222.5
G2 X7.3 I-0.4 J0.0
G1 Y232.5
G2 X7.7003 Y232.9 I0.4 J0.0
G1 F300.0 X7.7012 Y234.1
G2 F800.0 X9.3 Y232.5 I-0.0012 J-1.6
G1 Y222.5
G2 X6.1 I-1.6 J0.0
G1 Y232.5
G2 X7.7012 Y234.1 I1.6 J0.0
G0 Z5.0
G0 X7.7 Y182.9
G1 F300.0 Z-4.7
G2 F800.0 X8.1 Y182.5 I0.0 J-0.4
G1 Y172.5
G2 X7.3 I-0.4 J0.0
G1 Y182.5
G2 X7.7 Y182.9 I0.4 J0.0
G1 F300.0 Y184.1
G2 F800.0 X9.3 Y182.5 I0.0 J-1.6
G1 Y172.5
G2 X6.1 I-1.6 J0.0
G1 Y182.5
G2 X7.7 Y184.1 I1.6 J0.0
( Profilo interno )
S18000
G0 Z5.0
G0 X51.05 Y366.0
G1 F300.0 Z-7.0
G2 F800.0 X46.925 Y363.6184 I-2.75 J0.0
G2 Y368.3816 I1.375 J2.3816
G2 X51.05 Y366.0 I1.375 J-2.3816
G0 Z5.0
G0 X329.05
G1 F300.0 Z-7.0
G2 F800.0 X330.425 Y368.3816 I2.75 J0.0
G2 X334.55 Y366.0 I1.375 J-2.3816
G2 X330.425 Y363.6184 I-2.75 J0.0
G2 X329.05 Y366.0 I1.375 J2.3816
( Profilo esterno )
S18000
G0 Z5.0
G0 X38.3987 Y383.0001
G1 F300.0 Z-7.0
G2 F800.0 X33.0364 Y380.4996 I-5.3623 J4.4995
G1 X7.0
G3 X-0.5 Y372.9996 I0.0 J-7.5
G1 Y7.0
G3 X7.0 Y-0.5 I7.5 J0.0
G1 X33.0364
G3 X40.6968 Y3.0721 I0.0 J10.0
G1 X43.9927 Y6.9999
G2 X49.355 Y9.5004 I5.3623 J-4.4995
G1 X309.645
G2 X315.0073 Y6.9999 I0.0 J-7.0
G1 X318.3032 Y3.0721
G3 X325.9636 Y-0.5 I7.6604 J6.4279
G1 X352.0
G3 X359.5 Y7.0 I0.0 J7.5
G1 Y372.9996
G3 X352.0 Y380.4996 I-7.5 J0.0
G1 X325.9636
G2 X320.6013 Y383.0001 I0.0 J7.0
G1 X317.3055 Y386.9279
G3 X309.645 Y390.5 I-7.6604 J-6.4279
G1 X49.355
G3 X41.6945 Y386.9279 I0.0 J-10.0
G1 X38.3987 Y383.0001
G0 Z5.0
M5
M30
