( Made using CamBam - http://www.cambam.co.uk )
( left 3/3/2018 5:45:46 PM )
( T0 : 3.0 )
( T1 : 3.0 )
G21 G90 G64 G40
G0 Z30.0
( T0 : 3.0 )
T0 M6
( Foratura 1 )
G17
M3 S18000
G0 X9.25 Y70.7
G0 Z30.0
G0 X9.35 Y70.7
G1 F300.0 Z0.0
G2 F800.0 X9.2 Y70.6134 Z-2.3333 I-0.1 J0.0
G2 Y70.7866 Z-4.6667 I0.05 J0.0866
G2 X9.35 Y70.7 Z-7.0 I0.05 J-0.0866
G2 X9.2 Y70.6134 I-0.1 J0.0
G2 Y70.7866 I0.05 J0.0866
G2 X9.35 Y70.7 I0.05 J-0.0866
G0 Z30.0
G0 X53.6 Y46.45
G1 F300.0 Z0.0
G2 F800.0 X53.45 Y46.3634 Z-2.3333 I-0.1 J0.0
G2 Y46.5366 Z-4.6667 I0.05 J0.0866
G2 X53.6 Y46.45 Z-7.0 I0.05 J-0.0866
G2 X53.45 Y46.3634 I-0.1 J0.0
G2 Y46.5366 I0.05 J0.0866
G2 X53.6 Y46.45 I0.05 J-0.0866
G0 Z30.0
G0 X179.6
G1 F300.0 Z0.0
G2 F800.0 X179.45 Y46.3634 Z-2.3333 I-0.1 J0.0
G2 Y46.5366 Z-4.6667 I0.05 J0.0866
G2 X179.6 Y46.45 Z-7.0 I0.05 J-0.0866
G2 X179.45 Y46.3634 I-0.1 J0.0
G2 Y46.5366 I0.05 J0.0866
G2 X179.6 Y46.45 I0.05 J-0.0866
G0 Z30.0
G0 X305.6
G1 F300.0 Z0.0
G2 F800.0 X305.45 Y46.3634 Z-2.3333 I-0.1 J0.0
G2 Y46.5366 Z-4.6667 I0.05 J0.0866
G2 X305.6 Y46.45 Z-7.0 I0.05 J-0.0866
G2 X305.45 Y46.3634 I-0.1 J0.0
G2 Y46.5366 I0.05 J0.0866
G2 X305.6 Y46.45 I0.05 J-0.0866
G0 Z30.0
G0 X349.85 Y70.7
G1 F300.0 Z0.0
G2 F800.0 X349.7 Y70.6134 Z-2.3333 I-0.1 J0.0
G2 Y70.7866 Z-4.6667 I0.05 J0.0866
G2 X349.85 Y70.7 Z-7.0 I0.05 J-0.0866
G2 X349.7 Y70.6134 I-0.1 J0.0
G2 Y70.7866 I0.05 J0.0866
G2 X349.85 Y70.7 I0.05 J-0.0866
G0 Z30.0
G0 Y202.6
G1 F300.0 Z0.0
G2 F800.0 X349.7 Y202.5134 Z-2.3333 I-0.1 J0.0
G2 Y202.6866 Z-4.6667 I0.05 J0.0866
G2 X349.85 Y202.6 Z-7.0 I0.05 J-0.0866
G2 X349.7 Y202.5134 I-0.1 J0.0
G2 Y202.6866 I0.05 J0.0866
G2 X349.85 Y202.6 I0.05 J-0.0866
G0 Z30.0
G0 Y336.7
G1 F300.0 Z0.0
G2 F800.0 X349.7 Y336.6134 Z-2.3333 I-0.1 J0.0
G2 Y336.7866 Z-4.6667 I0.05 J0.0866
G2 X349.85 Y336.7 Z-7.0 I0.05 J-0.0866
G2 X349.7 Y336.6134 I-0.1 J0.0
G2 Y336.7866 I0.05 J0.0866
G2 X349.85 Y336.7 I0.05 J-0.0866
G0 Z30.0
G0 X305.6 Y380.45
G1 F300.0 Z0.0
G2 F800.0 X305.45 Y380.3634 Z-2.3333 I-0.1 J0.0
G2 Y380.5366 Z-4.6667 I0.05 J0.0866
G2 X305.6 Y380.45 Z-7.0 I0.05 J-0.0866
G2 X305.45 Y380.3634 I-0.1 J0.0
G2 Y380.5366 I0.05 J0.0866
G2 X305.6 Y380.45 I0.05 J-0.0866
G0 Z30.0
G0 X287.55 Y361.0
G1 F300.0 Z0.0
G2 F800.0 X287.475 Y360.9567 Z-2.3333 I-0.05 J0.0
G2 Y361.0433 Z-4.6667 I0.025 J0.0433
G2 X287.55 Y361.0 Z-7.0 I0.025 J-0.0433
G2 X287.475 Y360.9567 I-0.05 J0.0
G2 Y361.0433 I0.025 J0.0433
G2 X287.55 Y361.0 I0.025 J-0.0433
G0 Z30.0
G0 Y351.3
G1 F300.0 Z0.0
G2 F800.0 X287.475 Y351.2567 Z-2.3333 I-0.05 J0.0
G2 Y351.3433 Z-4.6667 I0.025 J0.0433
G2 X287.55 Y351.3 Z-7.0 I0.025 J-0.0433
G2 X287.475 Y351.2567 I-0.05 J0.0
G2 Y351.3433 I0.025 J0.0433
G2 X287.55 Y351.3 I0.025 J-0.0433
G0 Z30.0
G0 X179.6 Y380.45
G1 F300.0 Z0.0
G2 F800.0 X179.45 Y380.3634 Z-2.3333 I-0.1 J0.0
G2 Y380.5366 Z-4.6667 I0.05 J0.0866
G2 X179.6 Y380.45 Z-7.0 I0.05 J-0.0866
G2 X179.45 Y380.3634 I-0.1 J0.0
G2 Y380.5366 I0.05 J0.0866
G2 X179.6 Y380.45 I0.05 J-0.0866
G0 Z30.0
G0 X53.6
G1 F300.0 Z0.0
G2 F800.0 X53.45 Y380.3634 Z-2.3333 I-0.1 J0.0
G2 Y380.5366 Z-4.6667 I0.05 J0.0866
G2 X53.6 Y380.45 Z-7.0 I0.05 J-0.0866
G2 X53.45 Y380.3634 I-0.1 J0.0
G2 Y380.5366 I0.05 J0.0866
G2 X53.6 Y380.45 I0.05 J-0.0866
G0 Z30.0
G0 X9.35 Y336.7
G1 F300.0 Z0.0
G2 F800.0 X9.2 Y336.6134 Z-2.3333 I-0.1 J0.0
G2 Y336.7866 Z-4.6667 I0.05 J0.0866
G2 X9.35 Y336.7 Z-7.0 I0.05 J-0.0866
G2 X9.2 Y336.6134 I-0.1 J0.0
G2 Y336.7866 I0.05 J0.0866
G2 X9.35 Y336.7 I0.05 J-0.0866
G0 Z30.0
G0 Y202.6
G1 F300.0 Z0.0
G2 F800.0 X9.2 Y202.5134 Z-2.3333 I-0.1 J0.0
G2 Y202.6866 Z-4.6667 I0.05 J0.0866
G2 X9.35 Y202.6 Z-7.0 I0.05 J-0.0866
G2 X9.2 Y202.5134 I-0.1 J0.0
G2 Y202.6866 I0.05 J0.0866
G2 X9.35 Y202.6 I0.05 J-0.0866
( Tasca 1.5 )
G0 Z5.0
( T1 : 3.0 )
T1 M6
M3 S18000
G0 X209.5 Y381.6
G1 F300.0 Z-1.5
G1 F800.0 X199.5
G2 Y382.4 I0.0 J0.4
G1 X209.5
G2 Y381.6 I0.0 J-0.4
G1 F300.0 Y380.4
G1 F800.0 X199.5
G2 Y383.6 I0.0 J1.6
G1 X209.5
G2 Y380.4 I0.0 J-1.6
G0 Z5.0
G0 X159.8998 Y381.9872
G1 F300.0 Z-1.5
G2 F800.0 X159.5 Y381.6 I-0.3998 J0.0128
G1 X149.5
G2 Y382.4 I0.0 J0.4
G1 X159.5
G2 X159.8998 Y381.9872 I0.0 J-0.4
G1 F300.0 X161.0992 Y381.9488
G2 F800.0 X159.5 Y380.4 I-1.5992 J0.0512
G1 X149.5
G2 Y383.6 I0.0 J1.6
G1 X159.5
G2 X161.0992 Y381.9488 I0.0 J-1.6
G0 Z5.0
G0 X8.098 Y366.7396
G1 F300.0 Z-1.5
G2 F800.0 X8.1 Y366.7 I-0.398 J-0.0396
G1 Y356.7
G2 X7.3 I-0.4 J0.0
G1 Y366.7
G2 X8.098 Y366.7396 I0.4 J0.0
G1 F300.0 X9.2922 Y366.8583
G2 F800.0 X9.3 Y366.7 I-1.5922 J-0.1583
G1 Y356.7
G2 X6.1 I-1.6 J0.0
G1 Y366.7
G2 X9.2922 Y366.8583 I1.6 J0.0
G0 Z5.0
G0 X7.702 Y51.2
G1 F300.0 Z-1.5
G2 F800.0 X8.1 Y50.8 I-0.002 J-0.4
G1 Y40.8
G2 X7.3 I-0.4 J0.0
G1 Y50.8
G2 X7.702 Y51.2 I0.4 J0.0
G1 F300.0 X7.7081 Y52.4
G2 F800.0 X9.3 Y50.8 I-0.0081 J-1.6
G1 Y40.8
G2 X6.1 I-1.6 J0.0
G1 Y50.8
G2 X7.7081 Y52.4 I1.6 J0.0
G0 Z5.0
G0 X149.1002 Y48.0124
G1 F300.0 Z-1.5
G2 F800.0 X149.5 Y48.4 I0.3998 J-0.0124
G1 X159.5
G2 Y47.6 I0.0 J-0.4
G1 X149.5
G2 X149.1002 Y48.0124 I0.0 J0.4
G1 F300.0 X147.9008 Y48.0496
G2 F800.0 X149.5 Y49.6 I1.5992 J-0.0496
G1 X159.5
G2 Y46.4 I0.0 J-1.6
G1 X149.5
G2 X147.9008 Y48.0496 I0.0 J1.6
G0 Z5.0
G0 X199.1 Y48.0004
G1 F300.0 Z-1.5
G2 F800.0 X199.5 Y48.4 I0.4 J-0.0004
G1 X209.5
G2 Y47.6 I0.0 J-0.4
G1 X199.5
G2 X199.1 Y48.0004 I0.0 J0.4
G1 F300.0 X197.9 Y48.0015
G2 F800.0 X199.5 Y49.6 I1.6 J-0.0015
G1 X209.5
G2 Y46.4 I0.0 J-1.6
G1 X199.5
G2 X197.9 Y48.0015 I0.0 J1.6
G0 Z5.0
G0 X350.9
G1 F300.0 Z-1.5
G1 F800.0 Y50.8
G2 X351.7 I0.4 J0.0
G1 Y40.8
G2 X350.9 I-0.4 J0.0
G1 Y48.0015
G1 F300.0 X349.7
G1 F800.0 Y50.8
G2 X352.9 I1.6 J0.0
G1 Y40.8
G2 X349.7 I-1.6 J0.0
G1 Y48.0015
G0 Z5.0
G0 X351.2979 Y356.3
G1 F300.0 Z-1.5
G2 F800.0 X350.9 Y356.7 I0.0021 J0.4
G1 Y366.7
G2 X351.7 I0.4 J0.0
G1 Y356.7
G2 X351.2979 Y356.3 I-0.4 J0.0
G1 F300.0 X351.2917 Y355.1
G2 F800.0 X349.7 Y356.7 I0.0083 J1.6
G1 Y366.7
G2 X352.9 I1.6 J0.0
G1 Y356.7
G2 X351.2917 Y355.1 I-1.6 J0.0
( Tasca 3 )
S18000
G0 Z5.0
G0 X301.5 Y348.4237
G1 F300.0 Z-3.0
G2 F800.0 Y349.2237 I0.0 J0.4
G1 X341.5
G2 Y348.4237 I0.0 J-0.4
G1 X301.5
G1 F300.0 Y347.2237
G2 F800.0 Y350.4237 I0.0 J1.6
G1 X341.5
G2 Y347.2237 I0.0 J-1.6
G1 X301.5
( Tasca 4.7 )
S18000
G0 Z5.0
G0 X311.2 Y366.0
G1 F300.0 Z-4.7
G2 F800.0 X310.45 Y365.567 I-0.5 J0.0
G2 Y366.433 I0.25 J0.433
G2 X311.2 Y366.0 I0.25 J-0.433
G1 F300.0 X312.4
G2 F800.0 X309.85 Y364.5278 I-1.7 J0.0
G2 Y367.4722 I0.85 J1.4722
G2 X312.4 Y366.0 I0.85 J-1.4722
G1 F300.0 X313.6
G2 F800.0 X309.25 Y363.4885 I-2.9 J0.0
G2 Y368.5115 I1.45 J2.5115
G2 X313.6 Y366.0 I1.45 J-2.5115
G1 F300.0 X314.8
G2 F800.0 X308.65 Y362.4493 I-4.1 J0.0
G2 Y369.5507 I2.05 J3.5507
G2 X314.8 Y366.0 I2.05 J-3.5507
G1 F300.0 X316.0
G2 F800.0 X308.05 Y361.4101 I-5.3 J0.0
G2 Y370.5899 I2.65 J4.5899
G2 X316.0 Y366.0 I2.65 J-4.5899
G1 F300.0 X317.2
G2 F800.0 X307.45 Y360.3708 I-6.5 J0.0
G2 Y371.6292 I3.25 J5.6292
G2 X317.2 Y366.0 I3.25 J-5.6292
G0 Z5.0
G0 X349.4 Y364.0
G1 F300.0 Z-4.7
G1 F800.0 X351.4
G3 X351.7 Y364.0167 I0.0 J2.7
G1 Y359.3833
G3 X351.4 Y359.4 I-0.3 J-2.6833
G1 X349.4
G1 Y364.0
G1 F300.0 Y365.2
G1 F800.0 X351.4
G3 X352.9 Y366.7 I0.0 J1.5
G1 Y356.7
G3 X351.4 Y358.2 I-1.5 J0.0
G1 X348.2
G1 Y365.2
G1 X349.4
G0 Z5.0
G0 X351.2843 Y317.0997
G1 F300.0 Z-4.7
G2 F800.0 X351.7 Y316.7 I0.0157 J-0.3997
G1 Y306.7
G2 X350.9 I-0.4 J0.0
G1 Y316.7
G2 X351.2843 Y317.0997 I0.4 J0.0
G1 F300.0 X351.2374 Y318.2988
G2 F800.0 X352.9 Y316.7 I0.0626 J-1.5988
G1 Y306.7
G2 X349.7 I-1.6 J0.0
G1 Y316.7
G2 X351.2374 Y318.2988 I1.6 J0.0
G0 Z5.0
G0 X325.1562 Y290.7488
G1 F300.0 Z-4.7
G2 F800.0 X325.5 Y289.95 I-0.7562 J-0.7988
G1 Y285.45
G2 X323.3 I-1.1 J0.0
G1 Y289.95
G2 X325.1562 Y290.7488 I1.1 J0.0
G1 F300.0 X325.9812 Y291.6203
G2 F800.0 X326.7 Y289.95 I-1.5812 J-1.6703
G1 Y285.45
G2 X322.1 I-2.3 J0.0
G1 Y289.95
G2 X325.9812 Y291.6203 I2.3 J0.0
G1 F300.0 X326.8062 Y292.4917
G2 F800.0 X327.9 Y289.95 I-2.4062 J-2.5417
G1 Y285.45
G2 X320.9 I-3.5 J0.0
G1 Y289.95
G2 X326.8062 Y292.4917 I3.5 J0.0
G1 F300.0 X327.6312 Y293.3631
G2 F800.0 X329.1 Y289.95 I-3.2312 J-3.4131
G1 Y285.45
G2 X319.7 I-4.7 J0.0
G1 Y289.95
G2 X327.6312 Y293.3631 I4.7 J0.0
G1 F300.0 X328.4562 Y294.2346
G2 F800.0 X330.3 Y289.95 I-4.0562 J-4.2846
G1 Y285.45
G2 X318.5 I-5.9 J0.0
G1 Y289.95
G2 X328.4562 Y294.2346 I5.9 J0.0
G1 F300.0 X329.2811 Y295.106
G2 F800.0 X331.5 Y289.95 I-4.8811 J-5.156
G1 Y285.45
G2 X317.3 I-7.1 J0.0
G1 Y289.95
G2 X329.2811 Y295.106 I7.1 J0.0
G1 F300.0 X330.1061 Y295.9775
G2 F800.0 X332.7 Y289.95 I-5.7061 J-6.0275
G1 Y285.45
G2 X316.1 I-8.3 J0.0
G1 Y289.95
G2 X330.1061 Y295.9775 I8.3 J0.0
G1 F300.0 X330.9311 Y296.8489
G2 F800.0 X333.9 Y289.95 I-6.5311 J-6.8989
G1 Y285.45
G2 X314.9 I-9.5 J0.0
G1 Y289.95
G2 X330.9311 Y296.8489 I9.5 J0.0
G0 Z5.0
G0 X351.1793 Y232.8814
G1 F300.0 Z-4.7
G2 F800.0 X351.7 Y232.5 I0.1207 J-0.3814
G1 Y222.5
G2 X350.9 I-0.4 J0.0
G1 Y232.5
G2 X351.1793 Y232.8814 I0.4 J0.0
G1 F300.0 X350.8172 Y234.0254
G2 F800.0 X352.9 Y232.5 I0.4828 J-1.5254
G1 Y222.5
G2 X349.7 I-1.6 J0.0
G1 Y232.5
G2 X350.8172 Y234.0254 I1.6 J0.0
G0 Z5.0
G0 X351.2963 Y182.9
G1 F300.0 Z-4.7
G2 F800.0 X351.7 Y182.5 I0.0037 J-0.4
G1 Y172.5
G2 X350.9 I-0.4 J0.0
G1 Y182.5
G2 X351.2963 Y182.9 I0.4 J0.0
G1 F300.0 X351.285 Y184.0999
G2 F800.0 X352.9 Y182.5 I0.015 J-1.5999
G1 Y172.5
G2 X349.7 I-1.6 J0.0
G1 Y182.5
G2 X351.285 Y184.0999 I1.6 J0.0
G0 Z5.0
G0 X351.2999 Y101.2
G1 F300.0 Z-4.7
G2 F800.0 X351.7 Y100.8 I0.0001 J-0.4
G1 Y90.8
G2 X350.9 I-0.4 J0.0
G1 Y100.8
G2 X351.2999 Y101.2 I0.4 J0.0
G1 F300.0 X351.2997 Y102.4
G2 F800.0 X352.9 Y100.8 I0.0003 J-1.6
G1 Y90.8
G2 X349.7 I-1.6 J0.0
G1 Y100.8
G2 X351.2997 Y102.4 I1.6 J0.0
G0 Z5.0
G0 X351.7 Y48.1167
G1 F300.0 Z-4.7
G1 F800.0 Y43.4833
G3 X351.4 Y43.5 I-0.3 J-2.6833
G1 X349.4
G1 Y48.1
G1 X351.4
G3 X351.7 Y48.1167 I0.0 J2.7
G1 F300.0 X352.9
G1 F800.0 Y40.8
G3 X351.4 Y42.3 I-1.5 J0.0
G1 X348.2
G1 Y49.3
G1 X351.4
G3 X352.9 Y50.8 I0.0 J1.5
G1 Y48.1167
G0 Z5.0
G0 X331.9 Y48.0022
G1 F300.0 Z-4.7
G2 F800.0 X331.5 Y47.6 I-0.4 J-0.0022
G1 X321.5
G2 Y48.4 I0.0 J0.4
G1 X331.5
G2 X331.9 Y48.0022 I0.0 J-0.4
G1 F300.0 X333.1 Y48.0087
G2 F800.0 X331.5 Y46.4 I-1.6 J-0.0087
G1 X321.5
G2 Y49.6 I0.0 J1.6
G1 X331.5
G2 X333.1 Y48.0087 I0.0 J-1.6
G0 Z5.0
G0 X285.9 Y48.0001
G1 F300.0 Z-4.7
G2 F800.0 X285.5 Y47.6 I-0.4 J-0.0001
G1 X275.5
G2 Y48.4 I0.0 J0.4
G1 X285.5
G2 X285.9 Y48.0001 I0.0 J-0.4
G1 F300.0 X287.1 Y48.0003
G2 F800.0 X285.5 Y46.4 I-1.6 J-0.0003
G1 X275.5
G2 Y49.6 I0.0 J1.6
G1 X285.5
G2 X287.1 Y48.0003 I0.0 J-1.6
G0 Z5.0
G0 X206.8167 Y48.4
G1 F300.0 Z-4.7
G3 F800.0 X206.8 Y48.1 I2.6833 J-0.3
G1 Y46.1
G1 X202.2
G1 Y48.1
G3 X202.1833 Y48.4 I-2.7 J0.0
G1 X206.8167
G1 F300.0 Y49.6
G1 F800.0 X209.5
G3 X208.0 Y48.1 I0.0 J-1.5
G1 Y44.9
G1 X201.0
G1 Y48.1
G3 X199.5 Y49.6 I-1.5 J0.0
G1 X206.8167
G0 Z5.0
G0 X156.8167 Y48.4
G1 F300.0 Z-4.7
G3 F800.0 X156.8 Y48.1 I2.6833 J-0.3
G1 Y46.1
G1 X152.2
G1 Y48.1
G3 X152.1833 Y48.4 I-2.7 J0.0
G1 X156.8167
G1 F300.0 Y49.6
G1 F800.0 X159.5
G3 X158.0 Y48.1 I0.0 J-1.5
G1 Y44.9
G1 X151.0
G1 Y48.1
G3 X149.5 Y49.6 I-1.5 J0.0
G1 X156.8167
G0 Z5.0
G0 X83.8999 Y48.0087
G1 F300.0 Z-4.7
G2 F800.0 X83.5 Y47.6 I-0.3999 J-0.0087
G1 X73.5
G2 Y48.4 I0.0 J0.4
G1 X83.5
G2 X83.8999 Y48.0087 I0.0 J-0.4
G1 F300.0 X85.0996 Y48.0349
G2 F800.0 X83.5 Y46.4 I-1.5996 J-0.0349
G1 X73.5
G2 Y49.6 I0.0 J1.6
G1 X83.5
G2 X85.0996 Y48.0349 I0.0 J-1.6
G0 Z5.0
G0 X37.9 Y48.0003
G1 F300.0 Z-4.7
G2 F800.0 X37.5 Y47.6 I-0.4 J-0.0003
G1 X27.5
G2 Y48.4 I0.0 J0.4
G1 X37.5
G2 X37.9 Y48.0003 I0.0 J-0.4
G1 F300.0 X39.1 Y48.0012
G2 F800.0 X37.5 Y46.4 I-1.6 J-0.0012
G1 X27.5
G2 Y49.6 I0.0 J1.6
G1 X37.5
G2 X39.1 Y48.0012 I0.0 J-1.6
G0 Z5.0
G0 X9.6
G1 F300.0 Z-4.7
G1 F800.0 Y43.5
G1 X7.6
G3 X7.3 Y43.4833 I0.0 J-2.7
G1 Y48.1167
G3 X7.6 Y48.1 I0.3 J2.6833
G1 X9.6
G1 Y48.0012
G1 F300.0 X10.8
G1 F800.0 Y42.3
G1 X7.6
G3 X6.1 Y40.8 I0.0 J-1.5
G1 Y50.8
G3 X7.6 Y49.3 I1.5 J0.0
G1 X10.8
G1 Y48.0012
G0 Z5.0
G0 X7.7289 Y90.401
G1 F300.0 Z-4.7
G2 F800.0 X7.3 Y90.8 I-0.0289 J0.399
G1 Y100.8
G2 X8.1 I0.4 J0.0
G1 Y90.8
G2 X7.7289 Y90.401 I-0.4 J0.0
G1 F300.0 X7.8156 Y89.2042
G2 F800.0 X6.1 Y90.8 I-0.1156 J1.5958
G1 Y100.8
G2 X9.3 I1.6 J0.0
G1 Y90.8
G2 X7.8156 Y89.2042 I-1.6 J0.0
G0 Z5.0
G0 X7.7006 Y172.1
G1 F300.0 Z-4.7
G2 F800.0 X7.3 Y172.5 I-0.0006 J0.4
G1 Y182.5
G2 X8.1 I0.4 J0.0
G1 Y172.5
G2 X7.7006 Y172.1 I-0.4 J0.0
G1 F300.0 X7.7022 Y170.9
G2 F800.0 X6.1 Y172.5 I-0.0022 J1.6
G1 Y182.5
G2 X9.3 I1.6 J0.0
G1 Y172.5
G2 X7.7022 Y170.9 I-1.6 J0.0
G0 Z5.0
G0 X7.7 Y222.1
G1 F300.0 Z-4.7
G2 F800.0 X7.3 Y222.5 I0.0 J0.4
G1 Y232.5
G2 X8.1 I0.4 J0.0
G1 Y222.5
G2 X7.7 Y222.1 I-0.4 J0.0
G1 F300.0 X7.7001 Y220.9
G2 F800.0 X6.1 Y222.5 I-0.0001 J1.6
G1 Y232.5
G2 X9.3 I1.6 J0.0
G1 Y222.5
G2 X7.7001 Y220.9 I-1.6 J0.0
G0 Z5.0
G0 X7.7 Y306.3
G1 F300.0 Z-4.7
G2 F800.0 X7.3 Y306.7 I0.0 J0.4
G1 Y316.7
G2 X8.1 I0.4 J0.0
G1 Y306.7
G2 X7.7 Y306.3 I-0.4 J0.0
G1 F300.0 Y305.1
G2 F800.0 X6.1 Y306.7 I0.0 J1.6
G1 Y316.7
G2 X9.3 I1.6 J0.0
G1 Y306.7
G2 X7.7 Y305.1 I-1.6 J0.0
G0 Z5.0
G0 X7.3 Y359.3833
G1 F300.0 Z-4.7
G1 F800.0 Y364.0167
G3 X7.6 Y364.0 I0.3 J2.6833
G1 X9.6
G1 Y359.4
G1 X7.6
G3 X7.3 Y359.3833 I0.0 J-2.7
G1 F300.0 X6.1
G1 F800.0 Y366.7
G3 X7.6 Y365.2 I1.5 J0.0
G1 X10.8
G1 Y358.2
G1 X7.6
G3 X6.1 Y356.7 I0.0 J-1.5
G1 Y359.3833
G0 Z5.0
G0 X26.7229 Y365.8504
G1 F300.0 Z-4.7
G2 F800.0 X26.95 Y366.433 I0.4771 J0.1496
G2 X27.7 Y366.0 I0.25 J-0.433
G2 X26.95 Y365.567 I-0.5 J0.0
G2 X26.7229 Y365.8504 I0.25 J0.433
G1 F300.0 X25.5779 Y365.4913
G2 F800.0 X26.35 Y367.4722 I1.6221 J0.5087
G2 X28.9 Y366.0 I0.85 J-1.4722
G2 X26.35 Y364.5278 I-1.7 J0.0
G2 X25.5779 Y365.4913 I0.85 J1.4722
G1 F300.0 X24.4329 Y365.1323
G2 F800.0 X25.75 Y368.5115 I2.7671 J0.8677
G2 X30.1 Y366.0 I1.45 J-2.5115
G2 X25.75 Y363.4885 I-2.9 J0.0
G2 X24.4329 Y365.1323 I1.45 J2.5115
G1 F300.0 X23.2878 Y364.7732
G2 F800.0 X25.15 Y369.5507 I3.9122 J1.2268
G2 X31.3 Y366.0 I2.05 J-3.5507
G2 X25.15 Y362.4493 I-4.1 J0.0
G2 X23.2878 Y364.7732 I2.05 J3.5507
G1 F300.0 X22.1428 Y364.4141
G2 F800.0 X24.55 Y370.5899 I5.0572 J1.5859
G2 X32.5 Y366.0 I2.65 J-4.5899
G2 X24.55 Y361.4101 I-5.3 J0.0
G2 X22.1428 Y364.4141 I2.65 J4.5899
G1 F300.0 X20.9978 Y364.0551
G2 F800.0 X23.95 Y371.6292 I6.2022 J1.9449
G2 X33.7 Y366.0 I3.25 J-5.6292
G2 X23.95 Y360.3708 I-6.5 J0.0
G2 X20.9978 Y364.0551 I3.25 J5.6292
G0 Z5.0
G0 X73.1215 Y381.8706
G1 F300.0 Z-4.7
G2 F800.0 X73.5 Y382.4 I0.3785 J0.1294
G1 X83.5
G2 Y381.6 I0.0 J-0.4
G1 X73.5
G2 X73.1215 Y381.8706 I0.0 J0.4
G1 F300.0 X71.986 Y381.4825
G2 F800.0 X73.5 Y383.6 I1.514 J0.5175
G1 X83.5
G2 Y380.4 I0.0 J-1.6
G1 X73.5
G2 X71.986 Y381.4825 I0.0 J1.6
G0 Z5.0
G0 X152.1833 Y382.4
G1 F300.0 Z-4.7
G1 F800.0 X156.8167
G3 X156.8 Y382.1 I2.6833 J-0.3
G1 Y380.1
G1 X152.2
G1 Y382.1
G3 X152.1833 Y382.4 I-2.7 J0.0
G1 F300.0 Y383.6
G1 F800.0 X159.5
G3 X158.0 Y382.1 I0.0 J-1.5
G1 Y378.9
G1 X151.0
G1 Y382.1
G3 X149.5 Y383.6 I-1.5 J0.0
G1 X152.1833
G0 Z5.0
G0 X202.1833 Y382.4
G1 F300.0 Z-4.7
G1 F800.0 X206.8167
G3 X206.8 Y382.1 I2.6833 J-0.3
G1 Y380.1
G1 X202.2
G1 Y382.1
G3 X202.1833 Y382.4 I-2.7 J0.0
G1 F300.0 Y383.6
G1 F800.0 X209.5
G3 X208.0 Y382.1 I0.0 J-1.5
G1 Y378.9
G1 X201.0
G1 Y382.1
G3 X199.5 Y383.6 I-1.5 J0.0
G1 X202.1833
G0 Z5.0
G0 X275.1001 Y382.0087
G1 F300.0 Z-4.7
G2 F800.0 X275.5 Y382.4 I0.3999 J-0.0087
G1 X285.5
G2 Y381.6 I0.0 J-0.4
G1 X275.5
G2 X275.1001 Y382.0087 I0.0 J0.4
G1 F300.0 X273.9004 Y382.0349
G2 F800.0 X275.5 Y383.6 I1.5996 J-0.0349
G1 X285.5
G2 Y380.4 I0.0 J-1.6
G1 X275.5
G2 X273.9004 Y382.0349 I0.0 J1.6
( Profilo interno )
S18000
G0 Z5.0
G0 X313.45 Y366.0
G1 F300.0 Z-7.0
G2 F800.0 X309.325 Y363.6184 I-2.75 J0.0
G2 Y368.3816 I1.375 J2.3816
G2 X313.45 Y366.0 I1.375 J-2.3816
G0 Z5.0
G0 X308.9075 Y305.5497
G1 F300.0 Z-7.0
G2 F800.0 X309.0 Y305.45 I-0.0075 J-0.0997
G1 Y300.95
G2 X308.8 I-0.1 J0.0
G1 Y305.45
G2 X308.9075 Y305.5497 I0.1 J0.0
G0 Z5.0
G0 X339.8 Y305.4503
G1 F300.0 Z-7.0
G2 F800.0 X340.0 Y305.45 I0.1 J-0.0003
G1 Y300.95
G2 X339.8 I-0.1 J0.0
G1 Y305.45
G2 Y305.4503 I0.1 J0.0
G0 Z5.0
G0 X339.8997 Y274.55
G1 F300.0 Z-7.0
G2 F800.0 X340.0 Y274.45 I0.0003 J-0.1
G1 Y269.95
G2 X339.8 I-0.1 J0.0
G1 Y274.45
G2 X339.8997 Y274.55 I0.1 J0.0
G0 Z5.0
G0 X309.0 Y274.4503
G1 F300.0 Z-7.0
G2 F800.0 Y274.45 I-0.1 J-0.0003
G1 Y269.95
G2 X308.8 I-0.1 J0.0
G1 Y274.45
G2 X309.0 Y274.4503 I0.1 J0.0
G0 Z5.0
G0 X29.8154 Y365.1503
G1 F300.0 Z-7.0
G2 F800.0 X25.825 Y363.6184 I-2.6154 J0.8497
G2 Y368.3816 I1.375 J2.3816
G2 X29.95 Y366.0 I1.375 J-2.3816
G2 X29.8154 Y365.1503 I-2.75 J0.0
( Profilo esterno )
S18000
G0 Z5.0
G0 X38.3987 Y383.0001
G1 F300.0 Z-7.0
G2 F800.0 X33.0364 Y380.4996 I-5.3623 J4.4995
G1 X7.0
G3 X-0.5 Y372.9996 I0.0 J-7.5
G1 Y7.0
G3 X7.0 Y-0.5 I7.5 J0.0
G1 X33.0364
G3 X40.6968 Y3.0721 I0.0 J10.0
G1 X43.9927 Y6.9999
G2 X49.355 Y9.5004 I5.3623 J-4.4995
G1 X309.645
G2 X315.0073 Y6.9999 I0.0 J-7.0
G1 X318.3032 Y3.0721
G3 X325.9636 Y-0.5 I7.6604 J6.4279
G1 X352.0
G3 X359.5 Y7.0 I0.0 J7.5
G1 Y372.9996
G3 X352.0 Y380.4996 I-7.5 J0.0
G1 X325.9636
G2 X320.6013 Y383.0001 I0.0 J7.0
G1 X317.3055 Y386.9279
G3 X309.645 Y390.5 I-7.6604 J-6.4279
G1 X49.355
G3 X41.6945 Y386.9279 I0.0 J-10.0
G1 X38.3987 Y383.0001
G0 Z5.0
M5
M30
