( Made using CamBam - http://www.cambam.co.uk )
( bed 3/10/2018 5:51:23 PM )
( T0 : 3.0 )
( T1 : 3.0 )
G21 G90 G64 G40
G0 Z5.0
( T0 : 3.0 )
T0 M6
( Foratura 1 )
G17
M3 S10000
G0 X11.5 Y10.5
G0 Z5.0
G0 X11.7 Y10.5
G1 F50.0 Z0.0
G2 F100.0 X11.4 Y10.3268 Z-1.0 I-0.2 J0.0
G2 Y10.6732 Z-2.0 I0.1 J0.1732
G2 X11.7 Y10.5 Z-3.0 I0.1 J-0.1732
G2 X11.4 Y10.3268 I-0.2 J0.0
G2 Y10.6732 I0.1 J0.1732
G2 X11.7 Y10.5 I0.1 J-0.1732
G0 Z5.0
G0 Y229.5
G1 F50.0 Z0.0
G2 F100.0 X11.4 Y229.3268 Z-1.0 I-0.2 J0.0
G2 Y229.6732 Z-2.0 I0.1 J0.1732
G2 X11.7 Y229.5 Z-3.0 I0.1 J-0.1732
G2 X11.4 Y229.3268 I-0.2 J0.0
G2 Y229.6732 I0.1 J0.1732
G2 X11.7 Y229.5 I0.1 J-0.1732
G0 Z5.0
G0 X36.7
G1 F50.0 Z0.0
G2 F100.0 X36.4 Y229.3268 Z-1.0 I-0.2 J0.0
G2 Y229.6732 Z-2.0 I0.1 J0.1732
G2 X36.7 Y229.5 Z-3.0 I0.1 J-0.1732
G2 X36.4 Y229.3268 I-0.2 J0.0
G2 Y229.6732 I0.1 J0.1732
G2 X36.7 Y229.5 I0.1 J-0.1732
G0 Z5.0
G0 X135.2
G1 F50.0 Z0.0
G2 F100.0 X134.9 Y229.3268 Z-1.0 I-0.2 J0.0
G2 Y229.6732 Z-2.0 I0.1 J0.1732
G2 X135.2 Y229.5 Z-3.0 I0.1 J-0.1732
G2 X134.9 Y229.3268 I-0.2 J0.0
G2 Y229.6732 I0.1 J0.1732
G2 X135.2 Y229.5 I0.1 J-0.1732
G0 Z5.0
G0 X233.7
G1 F50.0 Z0.0
G2 F100.0 X233.4 Y229.3268 Z-1.0 I-0.2 J0.0
G2 Y229.6732 Z-2.0 I0.1 J0.1732
G2 X233.7 Y229.5 Z-3.0 I0.1 J-0.1732
G2 X233.4 Y229.3268 I-0.2 J0.0
G2 Y229.6732 I0.1 J0.1732
G2 X233.7 Y229.5 I0.1 J-0.1732
G0 Z5.0
G0 X258.7
G1 F50.0 Z0.0
G2 F100.0 X258.4 Y229.3268 Z-1.0 I-0.2 J0.0
G2 Y229.6732 Z-2.0 I0.1 J0.1732
G2 X258.7 Y229.5 Z-3.0 I0.1 J-0.1732
G2 X258.4 Y229.3268 I-0.2 J0.0
G2 Y229.6732 I0.1 J0.1732
G2 X258.7 Y229.5 I0.1 J-0.1732
G0 Z5.0
G0 Y10.5
G1 F50.0 Z0.0
G2 F100.0 X258.4 Y10.3268 Z-1.0 I-0.2 J0.0
G2 Y10.6732 Z-2.0 I0.1 J0.1732
G2 X258.7 Y10.5 Z-3.0 I0.1 J-0.1732
G2 X258.4 Y10.3268 I-0.2 J0.0
G2 Y10.6732 I0.1 J0.1732
G2 X258.7 Y10.5 I0.1 J-0.1732
( Profilo interno )
G0 Z5.0
( T1 : 3.0 )
T1 M6
M3 S10000
G0 X25.5 Y229.5
G1 F50.0 Z-3.0
G1 F100.0 X22.5
G1 X25.5
G0 Z5.0
G0 X244.5
G1 F50.0 Z-3.0
G1 F100.0 X247.5
G1 X244.5
G0 Z5.0
G0 Y10.5
G1 F50.0 Z-3.0
G1 F100.0 X247.5
G1 X244.5
G0 Z5.0
G0 X25.5
G1 F50.0 Z-3.0
G1 F100.0 X22.5
G1 X25.5
( Profilo esterno )
S10000
G0 Z5.0
G0 X258.5 Y236.0
G1 F50.0 Z-3.0
G1 F100.0 X83.668
G1 X36.9019
G1 X11.5
G3 X5.0 Y229.5 I0.0 J-6.5
G1 Y10.5
G3 X11.5 Y4.0 I6.5 J0.0
G1 X258.5
G3 X265.0 Y10.5 I0.0 J6.5
G1 Y229.5
G3 X258.5 Y236.0 I-6.5 J0.0
G0 Z5.0
M5
M30
